!!!!SEGMENT: pl-wtm--a-33-611-83_rozycki-ludomir--laguna-op-36.krn
!!!cenid: 19xx:153
!!!COM: Różycki, Ludomir
!!!COM-rismID: pe50045573
!!!CDT: 1883-1953
!!!CNT: Polish
!!!OTL: Laguna op. 36
!!!PDT: 1920
!!!AGN:
!!!YEC: Copyright 2022 Narodowy Instytut Fryderyka Chopina (https://polishscores.org)
!!!YEM: License CC-BY-4.0 (https://creativecommons.org/licenses/by/4.0)
!!!SMS-siglum: PL-Wtm
!!!SMS-shelfmark: A.33.611/83
!!!SMS-variant:
!!!SMS-altvar:
!!!SMS-shelfwork: W
!!!NIFC-rismSourceID: 1001186184
!!!NIFC-rismChildID: 1001186184
!!!NIFC-islandoraID: pl-wtm:64582
!!!URL-pdf-islandora: https://repozytorium.nifc.pl/islandora/object/pl-wtm%3A64582/datastream/PDF/view
!!!URL-scan: https://polish.musicsources.pl/pl/lokalizacje/galeria/druki-muzyczne/21087/3 @EN{Scan on Polish Music Sources Website} @PL{Skany w portalu Dziedzictwo Muzyki Polskiej w otwartym dostępie}
!!!IIIF:
!!!ONB-nifc:
!!!AIN: 1 piano
!!!key: F#
**kern	**fing	**kern	**fing	**dynam
*part1	*	*part1	*	*part1
*staff2	*	*staff1	*	*staff1/2
*group1	*	*group1	*	*
*ICklav	*	*ICklav	*	*
*Ipiano	*	*Ipiano	*	*
*I"PIANO	*	*I"PIANO	*	*
*	*	*I'	*	*
*clefF4	*	*clefG2	*	*
*kcancel	*	*kcancel	*	*
*k[f#c#g#d#a#e#]	*	*k[f#c#g#d#a#e#]	*	*
*F#:	*	*F#:	*	*
*M3/4	*	*M3/4	*	*
=1	=1	=1	=1	=1
*^	*	*^	*	*^
!!LO:TX:a:B:t=Allegro sostenuto. M.M. [quarter] = 80.
!LO:TX:b:i:t=con [Ped] leggiero	!	!	!	!	!	!	!
!	!LO:TUP:b:problem:klamra łukowa	!	!	!	!	!	!
(8B/L	48B\LLL	1	2.c#TT/	8ryy	12	.	p
!	!	!	!	!	!	!	!LO:HP:a=2
.	48F#\	2	.	.	.	.	>
.	48C#\	3	.	.	.	.	.
.	48FF#\	5	.	.	.	.	.
.	48C#\	.	.	.	.	.	.
.	48F#\JJJ	.	.	.	.	.	.
!	!LO:TUP:b:problem:klamra łukowa	!	!LO:TX:b:i:t=cresc.-poco-a-poco:ext=s:problem:text with extention lines	!	!	!	!
8A#/J)	48A#\LLL	1	.	8ryy	.	<	]
.	48F#\	.	.	.	.	.	.
.	48C#\	.	.	.	.	.	.
.	48FF#\	.	.	.	.	.	.
.	48C#\	.	.	.	.	.	.
.	48F#\JJJ	.	.	.	.	.	.
!	!LO:TUP:b:problem:klamra łukowa	!	!	!	!	!	!
(8B/L	48B\LLL	.	.	8ryy	.	.	.
!	!	!	!	!	!	!	!LO:HP:a=2
.	48F#\	.	.	.	.	.	>
.	48C#\	.	.	.	.	.	.
.	48FF#\	.	.	.	.	.	.
.	48C#\	.	.	.	.	.	.
.	48F#\JJJ	.	.	.	.	.	.
!	!LO:TUP:b:problem:klamra łukowa	!	!	!	!	!	!
8A#/J)	48A#\LLL	.	.	8ryy	.	.	]
.	48F#\	.	.	.	.	.	.
.	48C#\	.	.	.	.	.	.
.	48FF#\	.	.	.	.	.	.
.	48C#\	.	.	.	.	.	.
.	48F#\JJJ	.	.	.	.	.	.
!	!LO:TUP:b:problem:klamra łukowa	!	!	!	!	!	!
(8B/L	48B\LLL	.	.	8ryy	.	.	.
!	!	!	!	!	!	!	!LO:HP:a=2
.	48F#\	.	.	.	.	.	>
.	48C#\	.	.	.	.	.	.
.	48FF#\	.	.	.	.	[	.
.	48C#\	.	.	.	.	.	.
.	48F#\JJJ	.	.	.	.	.	.
!	!LO:TUP:b:problem:klamra łukowa	!	!	!	!	!	!
8A#/J)	48A#\LLL	.	.	8ryy	.	.	]
.	48F#\	.	.	.	.	.	.
.	48C#\	.	.	.	.	.	.
.	48FF#\	.	.	.	.	.	.
.	48C#\	.	.	.	.	.	.
.	48F#\JJJ	.	.	.	.	.	.
*	*	*	*	*	*	*v	*v
!!LO:LB:g=original
=2	=2	=2	=2	=2	=2	=2
*	*	*	*	*^	*	*
*ped	*Xtuplet	*	*	*	*	*	*
!	!	!	!	!	!	!	!LO:HP:b
4ryy	48An\LLL	.	(8cc#~::/L	4c#::\	4ryy	4	pp <
.	48F#\	.	.	.	.	.	.
.	48C#\	.	.	.	.	.	.
.	48FF#\	.	.	.	.	.	.
.	48C#\	.	.	.	.	.	.
.	48F#\JJJ	.	.	.	.	.	[
!	!	!	!	!	!	!	!LO:HP:b
.	48A\LLL	.	8dd#/J	.	.	5	>
.	48F#\	.	.	.	.	.	.
.	48C#\	.	.	.	.	.	.
.	48FF#\	.	.	.	.	.	.
.	48C#\	.	.	.	.	.	.
.	48F#\JJJ	.	.	.	.	.	.
(8A~/L	48A\LLL	.	2cc#/)	2c#TT\	8ryy	4	]
!	!	!	!	!	!	!	!LO:HP:a=2
.	48F#\	.	.	.	.	.	<
.	48C#\	.	.	.	.	.	.
.	48FF#\	.	.	.	.	.	.
.	48C#\	.	.	.	.	.	.
.	48F#\JJJ	.	.	.	.	.	.
8B/J	48B\LLL	.	.	.	8ryy	.	[
!	!	!	!	!	!	!	!LO:HP:a=2
.	48F#\	.	.	.	.	.	>
.	48C#\	.	.	.	.	.	.
.	48FF#\	.	.	.	.	.	.
.	48C#\	.	.	.	.	.	.
.	48F#\JJJ	.	.	.	.	.	.
4A/)	48A\LLL	.	.	.	4ryy	.	]
.	48F#\	.	.	.	.	.	.
.	48C#\	.	.	.	.	.	.
.	48FF#\	.	.	.	.	.	.
.	48C#\	.	.	.	.	.	.
.	48F#\JJJ	.	.	.	.	.	.
.	48A\LLL	.	.	.	.	.	.
.	48F#\	.	.	.	.	.	.
.	48C#\	.	.	.	.	.	.
.	48FF#\	.	.	.	.	.	.
.	48C#\	.	.	.	.	.	.
.	48F#\JJJ	.	.	.	.	.	.
*	*	*	*	*v	*v	*	*
!!LO:LB:g=original
=3	=3	=3	=3	=3	=3	=3
*	*	*	*	*	*	*^
*ped	*	*	*	*	*	*	*
(8B/L	48B\LLL	.	2.c#TT/	8ryy	.	.	p
!	!	!	!	!	!	!	!LO:HP:a=2
.	48F#\	.	.	.	.	.	>
.	48C#\	.	.	.	.	.	.
.	48FF#\	.	.	.	.	.	.
.	48C#\	.	.	.	.	.	.
.	48F#\JJJ	.	.	.	.	.	.
!	!	!	!LO:TX:b:i:t=cresc.-poco-a-poco:ext=s:problem:text with extention lines	!	!	!	!
8A#/J)	48A#X\LLL	.	.	8ryy	.	<	]
.	48F#\	.	.	.	.	.	.
.	48C#\	.	.	.	.	.	.
.	48FF#\	.	.	.	.	.	.
.	48C#\	.	.	.	.	.	.
.	48F#\JJJ	.	.	.	.	.	.
(8B/L	48B\LLL	.	.	8ryy	.	.	.
!	!	!	!	!	!	!	!LO:HP:a=2
.	48F#\	.	.	.	.	.	>
.	48C#\	.	.	.	.	.	.
.	48FF#\	.	.	.	.	.	.
.	48C#\	.	.	.	.	.	.
.	48F#\JJJ	.	.	.	.	.	.
8A#/J)	48A#\LLL	.	.	8ryy	.	.	]
.	48F#\	.	.	.	.	.	.
.	48C#\	.	.	.	.	.	.
.	48FF#\	.	.	.	.	.	.
.	48C#\	.	.	.	.	.	.
.	48F#\JJJ	.	.	.	.	.	.
(8B/L	48B\LLL	.	.	8ryy	.	.	.
!	!	!	!	!	!	!	!LO:HP:a=2
.	48F#\	.	.	.	.	.	>
.	48C#\	.	.	.	.	.	.
.	48FF#\	.	.	.	.	.	.
.	48C#\	.	.	.	.	.	.
.	48F#\JJJ	.	.	.	.	.	.
8A#/J)	48A#\LLL	.	.	8ryy	.	.	]
.	48F#\	.	.	.	.	[	.
.	48C#\	.	.	.	.	.	.
.	48FF#\	.	.	.	.	.	.
.	48C#\	.	.	.	.	.	.
.	48F#\JJJ	.	.	.	.	.	.
*	*	*	*	*	*	*v	*v
!!LO:LB:g=original
=4	=4	=4	=4	=4	=4	=4
*	*	*	*	*^	*	*
!	!	!	!	!	!	!	!LO:HP:a
4ryy	48An\LLL	.	(8cc#~/L	4c#\	4ryy	4	pp <
.	48F#\	.	.	.	.	.	.
.	48C#\	.	.	.	.	.	.
.	48FF#\	.	.	.	.	.	.
.	48C#\	.	.	.	.	.	.
.	48F#\JJJ	.	.	.	.	.	.
.	48A\LLL	.	8dd#/J	.	.	.	[
!	!	!	!	!	!	!	!LO:HP:a
.	48F#\	.	.	.	.	.	>
.	48C#\	.	.	.	.	.	.
.	48FF#\	.	.	.	.	.	.
.	48C#\	.	.	.	.	.	.
.	48F#\JJJ	.	.	.	.	.	.
(8A~/L	48A\LLL	.	2cc#/)	2c#TT\	8ryy	.	]<
.	48F#\	.	.	.	.	.	.
.	48C#\	.	.	.	.	.	.
.	48FF#\	.	.	.	.	.	.
.	48C#\	.	.	.	.	.	.
.	48F#\JJJ	.	.	.	.	.	.
8B/J	48B\LLL	.	.	.	8ryy	.	[
.	48F#\	.	.	.	.	.	>
.	48C#\	.	.	.	.	.	.
.	48FF#\	.	.	.	.	.	.
.	48C#\	.	.	.	.	.	.
.	48F#\JJJ	.	.	.	.	.	.
4A/)	48A\LLL	.	.	.	4ryy	.	]
.	48F#\	.	.	.	.	.	.
.	48C#\	.	.	.	.	.	.
.	48FF#\	.	.	.	.	.	.
.	48C#\	.	.	.	.	.	.
.	48F#\JJJ	.	.	.	.	.	.
.	48A\LLL	.	.	.	.	.	.
.	48F#\	.	.	.	.	.	.
.	48C#\	.	.	.	.	.	.
.	48FF#\	.	.	.	.	.	.
.	48C#\	.	.	.	.	.	.
.	48F#\JJJ	.	.	.	.	.	.
*v	*v	*	*	*	*	*	*
*	*	*	*v	*v	*	*
!!LO:LB:g=original
=5	=5	=5	=5	=5	=5
*ped	*	*	*	*	*
*cue	*	*	*	*	*
!LO:N:vis=32	!	!	!	!	!
N(>N[[<64EEn</LLL	5	16ryy	8rff	.	p <
!LO:N:vis=32	!	!	!	!	!
N[[64C#</	2	.	.	.	.
!LO:N:vis=32	!	!	!	!	!
N[[<64En</	1	.	.	.	.
!LO:N:vis=32	!	!	!	!	!
N[[>64An</JJJ	2	.	.	.	.
.	.	.	.	.	.
*	*	*cue	*	*	*
!	!	!LO:N:vis=32	!	!	!
16ryy	.	[[<64c#\LLL	.	1	.
!	!	!LO:N:vis=32	!	!	!
.	.	[[<64e\	.	2	.
!	!	!LO:N:vis=32	!	!	!
.	.	[[<64an\	.	4	.
!	!	!LO:N:vis=32	!	!	!
.	.	[[<64cc#\JJJN)	.	5	[
*Xcue	*	*Xcue	*	*	*
!!LO:TX:a:i:t=molto rit.
!	!	!LO:TX:a:rj:i:t=m.g.	!	!	!
4.AN]] 4.EN]] 4.C#N]] 4.EE/N]]	.	(8een/L	4.cc#]] 4.a]] 4.en]] 4.c#\]]	2	mf
*	*	*	*	*below	*
!	!	!LO:TX:b:i:t=m.d.	!	!	!
.	.	8gg#/	.	4	<
.	.	8ff#/	.	3	.
4r	.	8ee/	4ryy	2	[
.	.	16a/L	.	1	>
*Xped	*	*	*	*	*
.	.	16b/JJ	.	3	]]
=6	=6	=6	=6	=6	=6
*	*	*	*^	*	*
*ped	*	*	*	*	*above	*
!!LO:TX:a:i:t=a tempo
2.B:: 2.E#X:: 2.C#:: 2.GGn::\	.	8cc#::/L	(4.c#~::\	2.an:/	4	p
.	.	8dd#/J	.	.	.	.
.	.	2cc#/)	.	.	.	.
.	.	.	8d#~\	.	1	.
*Xped	*	*	*	*	*	*
.	.	.	4c#~\)	.	1	.
*	*	*	*v	*v	*	*
=7	=7	=7	=7	=7	=7
*ped	*	*	*	*	*
*cue	*	*	*	*	*
!LO:N:vis=32	!	!	!	!	!
N(>N[[<64EEn</LLL	.	16ryy	8rff	.	mf
!LO:N:vis=32	!	!	!	!	!
N[[64C#</	.	.	.	.	.
!LO:N:vis=32	!	!	!	!	!
N[[<64En</	.	.	.	.	.
!LO:N:vis=32	!	!	!	!	!
N[[>64An</JJJ	.	.	.	.	.
.	.	.	.	.	.
*	*	*cue	*	*	*
!	!	!LO:N:vis=32	!	!	!
16ryy	.	[[<64c#\LLL	.	.	.
!	!	!LO:N:vis=32	!	!	!
.	.	[[<64e\	.	.	.
!	!	!LO:N:vis=32	!	!	!
.	.	[[<64an\	.	.	.
!	!	!LO:N:vis=32	!	!	!
.	.	[[<64cc#\JJJ	.	.	.
*Xcue	*	*Xcue	*	*below	*
!	!	!LO:TX:a:rj:i:t=m.g.	!	!	!
4.AN]] 4.EN]] 4.C#N]] 4.EE/N]]	.	8een/L	4.cc#]] 4.a]] 4.en]] 4.c#\]]	.	.
!LO:TX:a:i:t=molto rit.	!	!LO:TX:b:i:t=m.d.	!	!	!
.	.	8bb/	.	5	<
!	!	!LO:SIC:v:o=16aa#/	!	!	!
.	.	16aa/	.	4	.
.	.	16ff#/	.	3	.
*	*	*Xbrackettup	*	*	*
4r	.	12ee/	4ryy	2	[
.	.	12a~/L	.	1	>
*Xped	*	*	*	*	*
.	.	12b~/JJ	.	3	]]
!!LO:PB:g=original
=8	=8	=8	=8	=8	=8
*	*	*	*^	*	*
*ped	*	*	*	*	*above	*
!	!	!	!	!	!	!LO:DY:t=%s a tempo
2.B:: 2.E#X:: 2.C#:: 2.GGn::\	.	8cc#::/L	4.c#::\	2.an::/	4	p
.	.	8dd#/J	.	.	.	.
.	.	2cc#/N)	.	.	.	.
.	.	.	8d#\	.	.	.
*Xped	*	*	*	*	*	*
.	.	.	4c#\	.	.	.
*	*	*v	*v	*v	*	*
=9	=9	=9	=9	=9
*^	*	*	*	*
*ped	*	*	*	*	*
(8B/L	48B\LLL	.	2.c#TT/	.	pp
.	48F#\	.	.	.	.
.	48C#\	.	.	.	.
.	48FF#\	.	.	.	.
.	48C#\	.	.	.	.
.	48F#\JJJ	.	.	.	.
!	! 	!	!LO:TX:b:i:t=cresc.-poco-a-poco:ext=s:problem:text with extention lines	!	!
8A#/J)	48A#X\LLL	.	.	.	<
.	48F#\	.	.	.	.
.	48C#\	.	.	.	.
.	48FF#\	.	.	.	.
.	48C#\	.	.	.	.
.	48F#\JJJ	.	.	.	.
(8B/L	48B\LLL	.	.	.	.
.	48F#\	.	.	.	.
.	48C#\	.	.	.	.
.	48FF#\	.	.	.	.
.	48C#\	.	.	.	.
.	48F#\JJJ	.	.	.	.
8A#/J)	48A#\LLL	.	.	.	.
.	48F#\	.	.	.	.
.	48C#\	.	.	.	.
.	48FF#\	.	.	.	.
.	48C#\	.	.	.	.
.	48F#\JJJ	.	.	.	.
(8B/L	48B\LLL	.	.	.	.
.	48F#\	.	.	.	.
.	48C#\	.	.	.	.
.	48FF#\	.	.	.	.
.	48C#\	.	.	.	.
.	48F#\JJJ	.	.	.	.
8A#/J)	48A#\LLL	.	.	.	.
.	48F#\	.	.	.	.
.	48C#\	.	.	.	[
.	48FF#\	.	.	.	.
.	48C#\	.	.	.	.
.	48F#\JJJ	.	.	.	.
!!LO:LB:g=original
=10	=10	=10	=10	=10	=10
*	*	*	*^	*	*
*	*	*	*	*^	*	*
*ped	*	*	*	*	*	*	*
8B~/L	48B\LLL	.	8r	8ryy	2ryy	.	.
.	48F#\	.	.	.	.	.	.
.	48C#\	.	.	.	.	.	.
.	48FF#\	.	.	.	.	.	.
.	48C#\	.	.	.	.	.	.
.	48F#\JJJ	.	.	.	.	.	.
!LO:TX:b:i:t=leggiero	!	!	!LO:TX:a:i:t=molto cantabile	!	!	!	!
8A#~/J	48A#\LLL	.	(8cc#L 8c#/	8f#\	.	4	.
.	48F#\	.	.	.	.	.	<
.	48C#\	.	.	.	.	.	.
!	!	!	!LO:TX:b:i:t=dolce	!	!	!	!
.	48FF#\	.	.	.	.	.	.
.	48C#\	.	.	.	.	.	.
.	48F#\JJJ	.	.	.	.	.	.
2ryy	48A#\LLL	.	8ee# 8e#/	4a#\	.	2 5	.
.	48F#\	.	.	.	.	.	.
.	48C#\	.	.	.	.	.	.
.	48FF#\	.	.	.	.	.	.
.	48C#\	.	.	.	.	.	.
.	48F#\JJJ	.	.	.	.	.	.
.	48A#\LLL	.	8dd# 8d#/	.	.	4	[
.	48F#\	.	.	.	.	.	.
.	48C#\	.	.	.	.	.	>
.	48FF#\	.	.	.	.	.	.
.	48C#\	.	.	.	.	.	.
.	48F#\JJJ	.	.	.	.	.	.
.	48A#\LLL	.	8cc# 8g#/	4c#\	8ryy	5	.
.	48F#\	.	.	.	.	.	.
.	48C#\	.	.	.	.	.	.
.	48FF#\	.	.	.	.	.	.
.	48C#\	.	.	.	.	.	.
.	48F#\JJJ	.	.	.	.	.	.
.	48A#\LLL	.	16a#/L	.	8f#\	1 3	]
.	48F#\	.	.	.	.	.	.
.	48C#\	.	.	.	.	.	.
.	48FF#\	.	16b/JJ	.	.	4	.
.	48C#\	.	.	.	.	.	.
*Xped	*	*	*	*	*	*	*
.	48F#\JJJ	.	.	.	.	.	.
*v	*v	*	*	*	*	*	*
!!LO:LB:g=original
=11	=11	=11	=11	=11	=11	=11
!LO:TX:b:i:t=con [Ped]	!	!	!	!	!	!
48B\LLL	.	8cc#L 8c#/	2.g# 2.e#\	4ryy	.	.
48E#\	.	.	.	.	.	.
48C#\	.	.	.	.	.	.
48FF#\	.	.	.	.	.	.
48C#\	.	.	.	.	.	.
48E#\JJJ	.	.	.	.	.	.
48B\LLL	.	8dd#J 8d#/	.	.	.	.
48E#\	.	.	.	.	.	.
48C#\	.	.	.	.	.	.
48FF#\	.	.	.	.	.	.
48C#\	.	.	.	.	.	.
48E#\JJJ	.	.	.	.	.	.
48B\LLL	.	2cc#/)	.	(<8c#\L	.	.
48E#\	.	.	.	.	.	.
48C#\	.	.	.	.	.	.
48FF#\	.	.	.	.	.	.
48C#\	.	.	.	.	.	.
48E#\JJJ	.	.	.	.	.	.
48B\LLL	.	.	.	8d#\J	2	.
48E#\	.	.	.	.	.	.
48C#\	.	.	.	.	.	.
48FF#\	.	.	.	.	.	.
48C#\	.	.	.	.	.	.
48E#\JJJ	.	.	.	.	.	.
48B\LLL	.	.	.	4c#\)	.	.
48E#\	.	.	.	.	.	.
48C#\	.	.	.	.	.	.
48FF#\	.	.	.	.	.	.
48C#\	.	.	.	.	.	.
48E#\JJJ	.	.	.	.	.	.
48B\LLL	.	.	.	.	.	.
48E#\	.	.	.	.	.	.
48C#\	.	.	.	.	.	.
48FF#\	.	.	.	.	.	.
48C#\	.	.	.	.	.	.
48E#\JJJ	.	.	.	.	.	.
*	*	*	*v	*v	*	*
!!LO:LB:g=original
=12	=12	=12	=12	=12	=12
*^	*	*	*	*	*
*ped	*	*	*	*	*	*
8B/L	48B\LLL	.	8r	8ryy	.	.
.	48F#\	.	.	.	.	.
.	48C#\	.	.	.	.	.
.	48FF#\	.	.	.	.	.
.	48C#\	.	.	.	.	.
.	48F#\JJJ	.	.	.	.	.
8A#/J	48A#\LLL	.	(8cc#L 8c#/	8f#\	5	<
.	48F#\	.	.	.	.	.
.	48C#\	.	.	.	.	.
.	48FF#\	.	.	.	.	.
.	48C#\	.	.	.	.	.
.	48F#\JJJ	.	.	.	.	.
8B/L	48B\LLL	.	8dd# 8d#/	4a#\	4	.
.	48F#\	.	.	.	.	.
.	48C#\	.	.	.	.	.
.	48FF#\	.	.	.	.	.
.	48C#\	.	.	.	.	.
.	48F#\JJJ	.	.	.	.	.
8A#/J	48A#\LLL	.	8ee# 8e#/	.	5	.
.	48F#\	.	.	.	.	.
.	48C#\	.	.	.	.	.
.	48FF#\	.	.	.	.	.
.	48C#\	.	.	.	.	.
.	48F#\JJJ	.	.	.	.	.
8B/L	48B\LLL	.	8ff# 8f#/	4cc#TT\	4	.
.	48F#\	.	.	.	.	.
.	48C#\	.	.	.	.	.
.	48FF#\	.	.	.	.	.
.	48C#\	.	.	.	.	.
.	48F#\JJJ	.	.	.	.	.
8A#/J	48A#\LLL	.	8aa#J 8a#/	.	5	.
.	48F#\	.	.	.	.	.
.	48C#\	.	.	.	.	.
.	48FF#\	.	.	.	.	.
.	48C#\	.	.	.	.	.
.	48F#\JJJ	.	.	.	.	.
!!LO:LB:g=original
=13	=13	=13	=13	=13	=13	=13
*	*	*	*	*	*^	*
*ped	*	*	*	*	*	*	*
8An/L	48A\LLL	.	4ff#/	8ccc#L 8cc#\	4	.	.
.	48F#\	.	.	.	.	.	.
.	48C#\	.	.	.	.	.	.
.	48FF#\	.	.	.	.	.	.
.	48C#\	.	.	.	.	.	.
.	48F#\JJJ	.	.	.	.	.	.
8B/J	48B\LLL	.	.	8ddd#J 8dd#\	5	.	.
.	48F#\	.	.	.	.	.	.
.	48C#\	.	.	.	.	.	.
.	48FF#\	.	.	.	.	.	.
.	48C#\	.	.	.	.	.	[
.	48F#\JJJ	.	.	.	.	.	.
(8A~/L	48A\LLL	.	2ff#TT/	2ccc# 2cc#\)	5	2	.
.	48F#\	.	.	.	.	.	.
.	48C#\	.	.	.	.	.	.
.	48FF#\	.	.	.	.	.	.
.	48C#\	.	.	.	.	.	.
.	48F#\JJJ	.	.	.	.	.	.
8B~/J	48B\LLL	.	.	.	.	.	.
.	48F#\	.	.	.	.	.	.
.	48C#\	.	.	.	.	.	.
.	48FF#\	.	.	.	.	.	.
.	48C#\	.	.	.	.	.	.
.	48F#\JJJ	.	.	.	.	.	.
4c#~/)	48c#\LLL	.	.	.	.	.	.
.	48F#\	.	.	.	.	.	.
.	48C#\	.	.	.	.	.	.
.	48FF#\	.	.	.	.	.	.
.	48C#\	.	.	.	.	.	.
.	48F#\JJJ	.	.	.	.	.	.
.	48c#\LLL	.	.	.	.	.	.
.	48F#\	.	.	.	.	.	.
.	48C#\	.	.	.	.	.	.
.	48FF#\	.	.	.	.	.	.
.	48C#\	.	.	.	.	.	.
.	48F#\JJJ	.	.	.	.	.	.
*	*	*	*	*	*v	*v	*
!!LO:PB:g=original
=14	=14	=14	=14	=14	=14	=14
*ped	*	*	*	*	*	*
8G#/L	48G#\LLL	1	4bb 4ff#/	(>8ccc#L 8cc#\	5	<
.	48D#\	2	.	.	.	.
.	48BB\	3	.	.	.	.
.	48FF#\	5	.	.	.	.
.	48BB\	.	.	.	.	.
.	48D#\JJJ	.	.	.	.	.
8F#/J	48F#\LLL	.	.	8ddd# 8dd#\	.	.
.	48D#\	.	.	.	.	.
.	48BB\	.	.	.	.	.
.	48FF#\	.	.	.	.	.
.	48BB\	.	.	.	.	.
.	48D#\JJJ	.	.	.	.	[
8c#/L	48c#\LLL	1	4ryy	8fff# 8ccc# 8ff#\	.	>
.	48F#\	2	.	.	.	.
.	48D#\	3	.	.	.	.
*Xped	*	*	*	*	*	*
.	48FF#\	5	.	.	.	.
.	48D#\	.	.	.	.	.
.	48F#\JJJ	.	.	.	.	.
*ped	*	*	*	*	*	*
8B/J	48B\LLL	.	.	8ddd#J 8bb 8dd#\	4	.
.	48F#\	.	.	.	.	.
.	48D#\	.	.	.	.	.
.	48FF#\	.	.	.	.	.
.	48D#\	.	.	.	.	.
.	48F#\JJJ	.	.	.	.	.
8d#/L	48d#\LLL	1	4ff#/	8ccc#L 8cc#\	5	]
.	48A#\	2	.	.	.	.
.	48F#\	3	.	.	.	.
.	48C#\	5	.	.	.	.
.	48F#\	.	.	.	.	.
.	48A#\JJJ	.	.	.	.	.
8c#/J	48c#\LLL	.	.	16bbL 16b\	5	.
.	48A#\	.	.	.	.	.
.	48F#\	.	.	.	.	.
*Xped	*	*	*	*	*	*
.	48C#\	.	.	16aa#JJ 16a#\)	4	.
.	48F#\	.	.	.	.	.
.	48A#\JJJ	.	.	.	.	.
!!LO:LB:g=original
=15	=15	=15	=15	=15	=15	=15
*	*	*	*	*	*	*^
*ped	*	*	*	*	*	*	*
4B/	48B\LLL	1	(4gg# 4ee#/	8ccc#L 8cc#\	5	<	.
.	48E#\	2	.	.	.	.	.
.	48C#\	3	.	.	.	.	.
.	48FF#\	5	.	.	.	.	.
.	48C#\	.	.	.	.	.	.
.	48E#\JJJ	.	.	.	.	.	.
.	48B\LLL	.	.	8ddd#J 8dd#\	.	.	.
.	48E#\	.	.	.	.	[[	.
.	48C#\	.	.	.	.	.	.
.	48FF#\	.	.	.	.	.	.
.	48C#\	.	.	.	.	.	.
.	48E#\JJJ	.	.	.	.	>	.
!	!	!	!	!	!	!	!LO:HP:a=2
8G#/L	48G#\LLL	.	4ee#/	8ccc#L 8cc#\	5	.	<
.	48E#\	.	.	.	.	.	.
.	48C#\	.	.	.	.	.	.
.	48FF#\	.	.	.	.	.	.
.	48C#\	.	.	.	.	.	.
.	48E#\JJJ	.	.	.	.	.	.
8B/J	48B\LLL	.	.	16aa#L 16a#\	4	]	[
.	48E#\	.	.	.	.	.	.
.	48C#\	.	.	.	.	.	.
.	48FF#\	.	.	16gg#JJ 16g#\	3	.	.
.	48C#\	.	.	.	.	.	.
*Xped	*	*	*	*	*	*	*
.	48E#\JJJ	.	.	.	.	.	.
*ped	*	*	*	*	*	*	*
!	!	!	!	!	!	!	!LO:HP:a=2
8B/L	48B\LLL	.	8ff#L 8f#/	4cc#\	5	.	>
.	48F#\	.	.	.	.	.	.
.	48C#\	.	.	.	.	.	.
.	48FF#\	.	.	.	.	.	.
.	48C#\	.	.	.	.	.	.
.	48F#\JJJ	.	.	.	.	.	.
8A#/J	48A#\LLL	.	8dd#J 8d#/)	.	4	.	]
.	48F#\	.	.	.	.	.	.
.	48C#\	.	.	.	.	.	.
.	48FF#\	.	.	.	.	.	.
.	48C#\	.	.	.	.	.	.
*Xped	*	*	*	*	*	*	*
.	48F#\JJJ	.	.	.	.	.	.
*	*	*	*	*	*	*v	*v
!!LO:LB:g=original
=16	=16	=16	=16	=16	=16	=16
*ped	*	*	*	*	*	*
4G#/	48G#\LLL	1	(8cc#L 8c#/	4b\	4	.
.	48E#\	2	.	.	.	<
.	48C#\	3	.	.	.	.
.	48FF#\	5	.	.	.	.
.	48C#\	.	.	.	.	.
.	48E#\JJJ	.	.	.	.	.
.	48G#\LLL	.	8dd#J 8d#/	.	.	.
.	48E#\	.	.	.	.	.
.	48C#\	.	.	.	.	[[
.	48FF#\	.	.	.	.	.
.	48C#\	.	.	.	.	.
.	48E#\JJJ	.	.	.	.	.
8G#/L	48G#\LLL	.	[4ee# [<4e#/	(8g#\L	2	.
.	48E#\	.	.	.	.	.
.	48C#\	.	.	.	.	.
.	48FF#\	.	.	.	.	.
.	48C#\	.	.	.	.	.
.	48E#\JJJ	.	.	.	.	.
8A#/J	48A#\LLL	.	.	8a#\J	3	.
.	48E#\	.	.	.	.	.
.	48C#\	.	.	.	.	.
.	48FF#\	.	.	.	.	.
.	48C#\	.	.	.	.	.
.	48E#\JJJ	.	.	.	.	.
4B/	48B\LLL	.	16ee#]KL 16e#/]	4b\)	3	.
.	48E#\	.	.	.	.	>
.	48C#\	.	.	.	.	.
.	48FF#\	.	8dd# 8d#/	.	4-5	.
.	48C#\	.	.	.	.	.
.	48E#\JJJ	.	.	.	.	.
.	48B\LLL	.	.	.	.	.
.	48E#\	.	.	.	.	.
.	48C#\	.	.	.	.	.
.	48FF#\	.	16cc#Jk 16c#/)	.	4	.
.	48C#\	.	.	.	.	]
.	48E#\JJJ	.	.	.	.	.
!!LO:LB:g=original
=17	=17	=17	=17	=17	=17	=17
*	*	*	*	*	*^	*
*ped	*	*	*	*	*	*	*
8B/L	48B\LLL	.	4cc#:/	(8c#:\L	5	.	.
!	!	!	!	!	!	!	!LO:HP:a
.	48F#\	.	.	.	.	.	<
.	48C#\	.	.	.	.	.	.
.	48FF#\	.	.	.	.	.	.
.	48C#\	.	.	.	.	.	.
.	48F#\JJJ	.	.	.	.	.	.
8A#/J	48A#\LLL	.	.	8d#\J	2	.	.
.	48F#\	.	.	.	.	.	.
.	48C#\	.	.	.	.	.	[
.	48FF#\	.	.	.	.	.	.
.	48C#\	.	.	.	.	.	.
.	48F#\JJJ	.	.	.	.	.	.
!	!	!	!	!	!	!	!LO:HP:a
(8d#/L	48d#\LLL	.	(8cc#/L	2f#\)	3	1	<
.	48F#\	.	.	.	.	.	.
.	48C#\	.	.	.	.	.	.
.	48FF#\	.	.	.	.	.	.
.	48C#\	.	.	.	.	.	.
.	48F#\JJJ	.	.	.	.	.	.
8c#/J	48c#\LLL	.	8dd#/J	.	.	.	.
.	48F#\	.	.	.	.	.	.
.	48C#\	.	.	.	.	.	.
.	48FF#\	.	.	.	.	.	[
.	48C#\	.	.	.	.	.	.
.	48F#\JJJ	.	.	.	.	.	.
8B/L	48B\LLL	.	4ff#/)	.	.	.	.
.	48F#\	.	.	.	.	.	.
.	48C#\	.	.	.	.	.	.
.	48FF#\	.	.	.	.	.	.
.	48C#\	.	.	.	.	.	.
.	48F#\JJJ	.	.	.	.	.	.
8A#/J)	48A#\LLL	.	.	.	.	.	.
.	48F#\	.	.	.	.	.	.
.	48C#\	.	.	.	.	.	.
.	48FF#\	.	.	.	.	.	.
.	48C#\	.	.	.	.	.	.
.	48F#\JJJ	.	.	.	.	.	.
!!LO:LB:g=original
=18	=18	=18	=18	=18	=18	=18	=18
*ped	*	*	*	*	*	*	*
!	!	!	!	!	!	!	!LO:HP:a
4G#/	48G#\LLL	.	4dd#::/	(8c#::\L	5	1	<
.	48E#\	.	.	.	.	.	.
.	48C#\	.	.	.	.	.	.
.	48FF#\	.	.	.	.	.	.
.	48C#\	.	.	.	.	.	.
.	48E#\JJJ	.	.	.	.	.	.
.	48G#\LLL	.	.	8d#\J	.	1	[[
.	48E#\	.	.	.	.	.	.
.	48C#\	.	.	.	.	.	.
.	48FF#\	.	.	.	.	.	.
.	48C#\	.	.	.	.	.	.
.	48E#\JJJ	.	.	.	.	.	.
!	!	!	!	!	!	!	!LO:HP:a
(8d#/L	48d#\LLL	.	(8cc#/L	2g#\)	1 2	.	<
.	48E#\	.	.	.	.	.	.
.	48C#\	.	.	.	.	.	.
.	48FF#\	.	.	.	.	.	.
.	48C#\	.	.	.	.	.	.
.	48E#\JJJ	.	.	.	.	.	.
8c#/J	48c#\LLL	.	8dd#/J	.	3	.	.
.	48E#\	.	.	.	.	.	.
.	48C#\	.	.	.	.	.	[
.	48FF#\	.	.	.	.	.	.
.	48C#\	.	.	.	.	.	.
.	48E#\JJJ	.	.	.	.	.	.
4B/)	48B\LLL	.	4gg#/)	.	5	.	.
.	48E#\	.	.	.	.	.	.
.	48C#\	.	.	.	.	.	.
.	48FF#\	.	.	.	.	.	.
.	48C#\	.	.	.	.	.	.
.	48E#\JJJ	.	.	.	.	.	.
.	48B\LLL	.	.	.	.	.	.
.	48E#\	.	.	.	.	.	.
.	48C#\	.	.	.	.	.	.
.	48FF#\	.	.	.	.	.	.
.	48C#\	.	.	.	.	.	.
.	48E#\JJJ	.	.	.	.	.	.
*	*	*	*	*	*v	*v	*
!!LO:PB:g=original
=19	=19	=19	=19	=19	=19	=19
*	*	*	*	*^	*	*
*ped	*	*	*	*	*	*	*
8B/L	48B\LLL	.	4dd#::/	8c#::\L	2ryy	.	.
.	48F#\	.	.	.	.	.	.
.	48C#\	.	.	.	.	.	.
.	48FF#\	.	.	.	.	.	.
.	48C#\	.	.	.	.	.	.
.	48F#\JJJ	.	.	.	.	.	.
8A#/J	48A#\LLL	.	.	8d#\J	.	.	.
.	48F#\	.	.	.	.	.	.
.	48C#\	.	.	.	.	.	.
.	48FF#\	.	.	.	.	.	.
.	48C#\	.	.	.	.	.	.
.	48F#\JJJ	.	.	.	.	.	.
!	!	!	!	!	!	!	!LO:HP:a
8g#/L	48g#\LLL	1	(8cc#/L	2a#\	.	1 2	<
.	48c#\	2	.	.	.	.	.
.	48A#\	3	.	.	.	.	.
.	48F#\	5	.	.	.	.	.
.	48A#\	.	.	.	.	.	.
.	48c#\JJJ	.	.	.	.	.	.
8f#/	48f#\LLL	.	8dd#/J	.	.	3	.
.	48c#\	.	.	.	.	.	.
.	48A#\	.	.	.	.	.	.
.	48F#\	.	.	.	.	.	[[
.	48A#\	.	.	.	.	.	.
.	48c#\JJJ	.	.	.	.	.	.
8d#/	48d#\LLL	1	[8aa#::/L	.	4cc#::\	2 5	.
.	48A#\	2	.	.	.	.	.
.	48F#\	3	.	.	.	.	.
.	48C#\	5	.	.	.	.	.
.	48F#\	.	.	.	.	.	.
.	48A#\JJJ	.	.	.	.	.	.
8c#/J	48c#\LLL	.	24aa#/L]	.	.	.	.
.	48A#\	.	.	.	.	.	.
*	*	*	*	*	*	*below	*
.	48F#\	.	24gg#/	.	.	4	.
.	48C#\	.	.	.	.	.	.
.	48F#\	.	24ff#/JJ)	.	.	3	.
.	48A#\JJJ	.	.	.	.	.	.
*	*	*	*	*v	*v	*	*
!!LO:LB:g=original
=20	=20	=20	=20	=20	=20	=20
*	*	*	*	*	*^	*^
*ped	*	*	*	*	*	*	*	*
2.B/	48B\LLL	.	4dd#::/	8c#::\L	.	.	.	.
.	48E#\	.	.	.	.	.	.	.
.	48C#\	.	.	.	.	.	.	.
.	48FF#\	.	.	.	.	.	.	.
.	48C#\	.	.	.	.	.	.	.
.	48E#\JJJ	.	.	.	.	.	.	.
.	48B\LLL	.	.	8d#\J	.	.	.	.
.	48E#\	.	.	.	.	.	.	.
.	48C#\	.	.	.	.	.	.	.
.	48FF#\	.	.	.	.	.	.	.
.	48C#\	.	.	.	.	.	.	.
.	48E#\JJJ	.	.	.	.	.	.	.
!	!	!	!	!	!	!	!LO:HP:a	!
.	48B\LLL	.	(8cc#/L	8b\L	2 3	.	<	<
.	48E#\	.	.	.	.	.	.	.
.	48C#\	.	.	.	.	.	.	.
.	48FF#\	.	.	.	.	.	.	.
.	48C#\	.	.	.	.	.	.	.
.	48E#\JJJ	.	.	.	.	.	.	.
.	48B\LLL	.	8dd#/J	8a#\J	4	.	.	.
.	48E#\	.	.	.	.	.	.	.
.	48C#\	.	.	.	.	.	[[	.
.	48FF#\	.	.	.	.	.	.	.
.	48C#\	.	.	.	.	.	.	.
.	48E#\JJJ	.	.	.	.	.	.	.
!	!	!	!	!	!	!	!LO:HP:a	!
.	48B\LLL	.	8bb/L	4g#\	5	1	>	.
.	48E#\	.	.	.	.	.	.	.
.	48C#\	.	.	.	.	.	.	.
.	48FF#\	.	.	.	.	.	.	.
.	48C#\	.	.	.	.	.	.	.
.	48E#\JJJ	.	.	.	.	.	.	.
.	48B\LLL	.	16aa#/L	.	4	.	.	.
.	48E#\	.	.	.	.	.	]	.
.	48C#\	.	.	.	.	.	.	.
.	48FF#\	.	16gg#/JJ)	.	3	.	.	.
.	48C#\	.	.	.	.	.	.	.
.	48E#\JJJ	.	.	.	.	.	.	.
*	*	*	*	*	*	*	*v	*v
*	*	*	*	*	*v	*v	*
!!LO:LB:g=original
=21	=21	=21	=21	=21	=21	=21
*ped	*	*	*	*	*above	*
8An/L	48A\LLL	1	(8ccc#L 8cc#/	4aan\	4	.
!	!	!	!LO:TX:b:i:t=cresc.-:ext=ud:problem:text with extention lines	!	!	!
.	48En\	2	.	.	.	<
.	48C#\	3	.	.	.	.
.	48FF#\	5	.	.	.	.
.	48C#\	.	.	.	.	.
.	48E\JJJ	.	.	.	.	.
8B/	48B\LLL	.	8ddd#J 8dd#/	.	5	.
.	48E\	.	.	.	.	.
.	48C#\	.	.	.	.	.
.	48FF#\	.	.	.	.	.
.	48C#\	.	.	.	.	.
.	48E\JJJ	.	.	.	.	.
8A/	48A\LLL	.	2ccc# 2cc#/)	(8ff#\L	4-5	.
.	48E\	.	.	.	.	.
.	48C#\	.	.	.	.	[
.	48FF#\	.	.	.	.	.
.	48C#\	.	.	.	.	.
.	48E\JJJ	.	.	.	.	.
8B/J	48B\LLL	.	.	8gg#\J	3	.
.	48E\	.	.	.	.	.
.	48C#\	.	.	.	.	.
.	48FF#\	.	.	.	.	.
.	48C#\	.	.	.	.	.
.	48E\JJJ	.	.	.	.	.
*ped	*	*	*	*	*	*
4c#/	48c#\LLL	1	.	4aa\)	4	.
.	48A\	2	.	.	.	.
.	48E\	4	.	.	.	.
.	48C#\	5	.	.	.	.
.	48E\	.	.	.	.	.
.	48A\JJJ	.	.	.	.	.
.	48e#\LLL	1	.	.	.	.
.	48c#\	2	.	.	.	.
.	48A\JJ	3	.	.	.	.
.	64E\LLL	1	.	.	.	.
.	64C#\	2	.	.	.	.
.	64AAn\	3	.	.	.	.
.	64EEn\JJJJ	1	.	.	.	.
*	*	*	*v	*v	*	*
!!LO:LB:g=original
=22	=22	=22	=22	=22	=22
*tuplet	*	*below	*	*	*
*ped	*	*	*	*	*
(56EEEn/LLL	2.ryy	5	8r	.	f
!	!	!	!LO:TX:b:i:t=poco rit.-:dur=2e:ext=ud:problem:text with extention lines	!	!
56FFF#/	.	.	.	.	.
56GGG#/	.	.	.	.	.
56AAAn/	.	.	.	.	.
56BBB/	.	.	.	.	.
56CC#/	.	3	.	.	.
56DDn/JJJ	.	.	.	.	.
56EEn/LLL	.	.	(8eeenL 8ccc# 8aan 8een~\	.	.
56FF#/	.	4	.	.	.
56GG#/	.	.	.	.	.
56AAn/	.	.	.	.	.
56BBn/	.	.	.	.	.
56C#/	.	3	.	.	.
56Dn/JJJ	.	.	.	.	.
!LO:TUP:a	!	!	!	!	!
56En\LLL	.	.	8ggg# 8gg#~\	5	.
56F#\	.	4	.	.	.
56G#\	.	.	.	.	.
56An\	.	.	.	.	.
56B\	.	.	.	.	.
56c#\	.	3	.	.	.
56dn\JJJ	.	.	.	.	.
!LO:TUP:a	!	!	!	!	!
!LO:SIC:v:o=48e#\LLL	!	!	!	!	!
48e\LLL	.	1	8fff#J 8ff#~\	4	.
48A\	.	2	.	.	.
48E\	.	4	.	.	.
48C#\	.	5	.	.	.
48E\	.	.	.	.	.
48A\JJJ	.	.	.	.	.
!LO:TUP:a	!	!	!	!	!
!LO:SIC:v:o=48e#\LLL	!	!	!	!	!
48e\LLL	.	.	8eeeL 8ccc# 8aa 8ee~\	.	.
48A\	.	.	.	.	.
48E\	.	.	.	.	.
48C#\	.	.	.	.	.
48E\	.	.	.	.	.
48A\JJJ	.	.	.	.	.
!LO:TUP:a	!	!	!	!	!
!LO:SIC:v:o=48e#\LLL	!	!	!	!	!
48e\LLL	.	.	16aaL 16an\	4	.
48A\	.	.	.	.	.
48E\	.	.	.	.	.
48C#\	.	.	16bbJJ 16b\	.	.
48E\	.	.	.	.	.
48A\JJJ)	.	.	.	.	.
!!LO:LB:g=original
=23	=23	=23	=23	=23	=23
*	*	*	*^	*	*
*	*	*	*	*^	*	*
*Xtuplet	*	*above	*	*	*	*	*
*ped	*	*	*	*	*	*	*
!	!	!	!LO:TX:b:i:t=a tempo	!	!	!	!
8cn/L	48c\LLL	1	4gg# 4een/	8cccnL 8ccn\	2ryy	.	.
.	48G#X\	2	.	.	.	.	.
.	48En\	3	.	.	.	.	.
.	48BB-X\	5	.	.	.	.	.
.	48E\	.	.	.	.	.	.
.	48G#\JJJ	.	.	.	.	.	.
8dn/J	48d\LLL	.	.	8dddnJ 8ddn\	.	.	.
.	48G#\	.	.	.	.	.	.
.	48E\	.	.	.	.	.	.
.	48BB-\	.	.	.	.	.	.
.	48E\	.	.	.	.	.	.
.	48G#\JJJ	.	.	.	.	.	.
!LO:TX:t=P:problem:mixed beam	!	!	!	!	!	!	!
8c/L	48c\LLL	.	2ccc 2cc/)	2ryy	.	.	.
.	48G#\	.	.	.	.	.	.
.	48E\	.	.	.	.	.	.
.	48BB-\	.	.	.	.	.	.
.	48E\	.	.	.	.	.	.
.	48G#\JJJ	.	.	.	.	.	.
!	!	!	!LO:TX:a:i:t=m.d.	!	!	!	!
8dn>^>\J	48c\LLL	2	.	.	.	.	.
.	48G#\	.	.	.	.	.	.
.	48E\	.	.	.	.	.	.
.	48BB-\	.	.	.	.	.	.
.	48E\	.	.	.	.	.	.
.	48G#\JJJ	.	.	.	.	.	.
8ryy	48c\LLL	.	.	.	8enL 8cn^>/	1 3	.
.	48G#\	.	.	.	.	.	.
.	48E\	.	.	.	.	.	.
.	48BB-\	.	.	.	.	.	.
.	48E\	.	.	.	.	.	.
.	48G#\JJJ	.	.	.	.	.	.
8ryy	48c\LLL	.	.	.	16f#L 16dn^>/	2 4	.
.	48G#\	.	.	.	.	.	.
.	48E\	.	.	.	.	.	.
*Xped	*	*	*	*	*	*	*
.	48BB-\	.	.	.	16g#JJ 16e^>/	3 5	.
.	48E\	.	.	.	.	.	.
.	48G#\JJJ	.	.	.	.	.	.
*v	*v	*	*	*	*	*	*
*	*	*v	*v	*v	*	*
!!LO:PB:g=original
=24	=24	=24	=24	=24
*ped	*	*	*	*
(48cn\LLL	1	8r	.	.
48A-X\	2	.	.	.
48E-X\	3	.	.	.
48AA-X\	5	.	.	.
48E-\	.	.	.	.
48A-\JJJ)	.	.	.	.
!	!	!LO:TX:b:i:t=marcato	!	!
(48e-X\LLL	1	(8eee-XL 8cccn 8aa-X 8ee-X\	.	.
48c\	2	.	.	.
48A-\	3	.	.	.
48E-\	.	.	.	.
48A-\	.	.	.	.
48c\JJJ)	.	.	.	.
(48b-X\LLL	1	8bbb-X 8eee- 8ccc 8bb-X\	.	.
48e-\	2	.	.	.
48c\	4	.	.	.
48A-\	5	.	.	.
48c\	.	.	.	.
48e-\JJJ)	.	.	.	.
(48a-X\LLL	.	16aaa-XL 16aa-\	.	.
48e-\	.	.	.	.
48c\	.	.	.	.
48A-\	.	16fffnJJ 16ffn\	.	.
48c\	.	.	.	.
48e-\JJJ)	.	.	.	.
(48a-\LLL	.	12eee-L 12ee-^\	4	.
48e-\	.	.	.	.
48c\	.	.	.	.
*Xped	*	*	*	*
48A-\	.	.	.	.
48c\	.	12dddn 12ddn^\	5	.
48e-\JJJ)	.	.	.	.
(48a-\LLL	.	.	.	.
48e-\	.	.	.	.
48c\	.	12ddd-XJ 12dd-X^\)	4	.
48A-\	.	.	.	.
48c\	.	.	.	.
48e-\JJJ)	.	.	.	.
!!LO:LB:g=original
=25	=25	=25	=25	=25
*	*	*^	*	*
*	*	*	*^	*	*
*ped	*	*	*	*	*	*
8GG-X 8GGG-X/	.	4gg#X 4een/	(>8cccnL 8ccn\	4.ryy	5	.
(48B-X\LLL	.	.	8dddnJ 8ddn\	.	.	.
48En\	2	.	.	.	.	.
48Cn\	3	.	.	.	.	.
48GG-\	.	.	.	.	.	.
48C\	.	.	.	.	.	.
48E\JJJ)	.	.	.	.	.	.
(48B-\LLL	.	2ccc 2cc/)	8rc	.	.	.
48E\	.	.	.	.	.	.
48C\	.	.	.	.	.	.
48GG-\	.	.	.	.	.	.
48C\	.	.	.	.	.	.
48E\JJJ)	.	.	.	.	.	.
(48B-\LLL	.	.	4.ryy	16dn^>/LL	2	.
48E\	.	.	.	.	.	.
48C\	.	.	.	.	.	.
48GG-\	.	.	.	16en^>/JJ	3	.
48C\	.	.	.	.	.	.
48E\JJJ)	.	.	.	.	.	.
(48B-\LLL	.	.	.	8eL 8cn^>/	2 4	.
48E\	.	.	.	.	.	.
48C\	.	.	.	.	.	.
48GG-\	.	.	.	.	.	.
48C\	.	.	.	.	.	.
48E\JJJ)	.	.	.	.	.	.
!	!	!	!	!LO:TX:t=P:problem:# w nawiasie	!	!
(48B-\LLL	.	.	.	16f#XL 16d^/	1 3	.
48E\	.	.	.	.	.	.
48C\	.	.	.	.	.	.
!	!	!	!	!LO:TX:t=P:problem:# w nawiasie	!	!
48GG-\	.	.	.	16g#XJJ 16e^/	2 4	.
48C\	.	.	.	.	.	.
48E\JJJ)	.	.	.	.	.	.
*	*	*v	*v	*v	*	*
!!LO:LB:g=original
=26	=26	=26	=26	=26
*ped	*	*	*	*
!	!	!LO:TUP:a	!	!LO:HP:t=molto cresc.
(48cn\LLL	.	12ccnL 12a-X^\	3 5	<
48Fn\	2	.	.	.
48Cn\	3	.	.	.
48FFn\	5	.	.	.
48C\	.	12cc^\	2	.
48F\JJJ)	.	.	.	.
(48c\LLL	.	.	.	.
48F\	.	.	.	.
48C\	.	12ddn^\J	3	<
48FF\	.	.	.	.
48C\	.	.	.	.
48F\JJJ)	.	.	.	.
!	!	!LO:TUP:a	!	!
(48c\LLL	.	12aa-XL 12a-^\	1 5	.
48F\	.	.	.	.
48C\	.	.	.	.
48FF\	.	.	.	.
!	!	!LO:TX:b:i:t=con passione	!	!
48C\	.	12cccn^\	2	.
48F\JJJ)	.	.	.	.
(48c\LLL	.	.	.	.
48F\	.	.	.	.
48C\	.	12dddn^\J	3	.
48FF\	.	.	.	.
48C\	.	.	.	.
48F\JJJ)	.	.	.	.
(48c\LLL	.	4aaa-X 4aa-^\	.	.
48F\	.	.	.	.
48C\	.	.	.	.
48FF\	.	.	.	.
48C\	.	.	.	.
48F\JJJ)	.	.	.	.
(48c\LLL	.	.	.	.
48F\	.	.	.	.
48C\	.	.	.	.
48FF\	.	.	.	.
48C\	.	.	.	.
48F\JJJ)	.	.	.	[
!!LO:LB:g=original
=27	=27	=27	=27	=27
*	*	*^	*	*
*ped	*	*	*	*	*
(48cn\LLL	.	(4aaa-X 4dddn 4cccn 4aa-X\	4ryy	.	[ ff
48A-X\	2	.	.	.	.
48F-X\	3	.	.	.	.
48BB-X\	.	.	.	.	.
48F-\	.	.	.	.	.
48A-\JJJ)	.	.	.	.	.
(48c\LLL	.	.	.	.	.
48A-\	.	.	.	.	.
48F-\	.	.	.	.	.
48BB-\	.	.	.	.	.
48F-\	.	.	.	.	.
48A-\JJJ)	.	.	.	.	.
*ped	*	*	*	*	*
(48dn\LLL	.	4ddd 4bb-X/	8gggnL 8ggn\	.	.
48A-\	.	.	.	.	.
48Fn\	.	.	.	.	.
48BB-\	.	.	.	.	.
48F\	.	.	.	.	.
48A-\JJJ)	.	.	.	.	.
(48d\LLL	.	.	8fffnJ 8ffn\	.	.
48A-\	.	.	.	.	.
48F\	.	.	.	.	.
48BB-\	.	.	.	.	.
48F\	.	.	.	.	.
*Xped	*	*	*	*	*
48A-\JJJ)	.	.	.	.	.
*ped	*	*	*	*	*
!	!	!LO:TUP:a	!	!	!
(32fn\LLL	1	12dddnL 12ddn^\	4ryy	.	.
32dn\	2	.	.	.	.
32B-X\	3	.	.	.	.
.	.	12cccn 12ccn^\	.	.	.
32A-X\JJ	4	.	.	.	.
*tuplet	*	*	*	*	*
!LO:TUP:a	!	!	!	!	!
48Gn\LL	1	.	.	.	.
48Fn\	.	.	.	.	.
48E-X\	.	12bb-XJ 12b-X^\)	.	4	.
48Dn\	1	.	.	.	.
48Cn\	.	.	.	.	.
*Xped	*	*	*	*	*
48BB-X\JJJ)	.	.	.	.	.
!!LO:LB:g=original
=28	=28	=28	=28	=28	=28
*ped	*	*	*	*	*
!!LO:TX:a:i:t=poco più mosso, agitato
(24EE-X\LL	5	4ryy	8r	.	mf
24BB-X\	3	.	.	.	.
24E-X\	2	.	.	.	.
24Gn\	1	.	(8bb-XL 8ggn 8ee-X 8b-X\	.	.
24B-X\	4	.	.	.	.
24e-X\JJ	2	.	.	.	.
24gn\LL	1	4gg/	8dddn 8ddn\	.	.
24e-\	.	.	.	.	.
24B-\	.	.	.	.	.
24G\	1	.	8cccnJ 8ccn\	.	.
24E-\	.	.	.	.	.
*Xped	*	*	*	*	*
24BB-\JJ	.	.	.	.	.
*ped	*	*	*	*	*
*Xtuplet	*	*	*	*	*
24EE-\LL	.	4ryy	8bb-L 8b-\	4	.
24BB-\	.	.	.	.	.
24E-\	.	.	.	.	.
!	!	!	!LO:SIC:s:v=16ggL 16gn\	!	!
24G\	.	.	16ggL 16g#\	5	.
24B-\	.	.	.	.	.
.	.	.	16aa#JJ 16a#\)	4	.
*Xped	*	*	*	*	*
24e-\JJ)	.	.	.	.	.
*	*	*v	*v	*	*
=29	=29	=29	=29	=29
*ped	*	*	*	*
(32g-X\LLL	1	(8bb-XL 8gg-X 8ee-X 8b-X~\	.	<
32e-X\	2	.	.	.
32B-X\	4	.	.	.
*Xped	*	*	*	*
32G-X\JJJ)	5	.	.	.
*ped	*	*	*	*
(32fn\LLL	.	8cccn 8gg- 8ee- 8ccn~\	.	.
32B-\	.	.	.	.
32G-\	.	.	.	.
*Xped	*	*	*	*
32Fn\JJJ)	.	.	.	.
*ped	*	*	*	*
(32e-\LLL	.	8dddn 8bb- 8gg- 8ddn~\	.	.
32B-\	.	.	.	.
32G-\	.	.	.	.
*Xped	*	*	*	*
32E-X\JJJ)	.	.	.	.
*ped	*	*	*	*
(32cn\LLL	.	8eee-X 8bb- 8gg- 8ee-~\	.	.
32G-\	.	.	.	.
32E-\	.	.	.	.
*Xped	*	*	*	*
32Cn\JJJ)	.	.	.	.
*ped	*	*	*	*
(32B-\LLL	1	8fffn 8eee- 8bb- 8ffn~\	.	.
32G-\	2	.	.	.
32E-\	3	.	.	.
*Xped	*	*	*	*
32BB-X\JJJ)	5	.	.	.
*ped	*	*	*	*
(32G-/LLL	1	8ggg-XJ 8eee- 8bb- 8gg-~\	.	[[
32E-/	2	.	.	.
32BB-/	4	.	.	.
*Xped	*	*	*	*
32GG-X/JJJ)	5	.	.	.
!!LO:PB:g=original
=30	=30	=30	=30	=30
*	*	*^	*	*
*tuplet	*	*	*	*	*
*ped	*	*	*	*	*
!LO:TUP:a	!	!	!	!	!
(24EE-X\LL	.	8bbb-X 8gggn 8eee-X 8bb-X\)	8ryy	.	.
24BB-X\	.	.	.	.	.
24E-X\	.	.	.	.	.
24Gn\	.	8ryy	(8bb-L 8b-X\	4	.
24B-X\	.	.	.	.	.
24e-X\JJ	.	.	.	.	.
!LO:TUP:a	!	!	!	!	!
24g#\LL	.	4gg#/	8dddn 8ddn\	.	.
24e-\	.	.	.	.	.
24B-\	.	.	.	.	.
24G\	.	.	8cccnJ 8ccn\	.	.
24E-\	.	.	.	.	.
24BB-\JJ	.	.	.	.	.
*Xped	*	*	*	*	*
!LO:TUP:a	!	!	!	!	!
24EE-\LL	.	4ryy	8bb-L 8b-\	.	.
24BB-\	.	.	.	.	.
24E-\	.	.	.	.	.
24G\	.	.	16gg#L 16g#\	5	.
24B-\	.	.	.	.	.
.	.	.	16aa#JJ 16a#\)	4	.
24e-\JJ)	.	.	.	.	.
*	*	*v	*v	*	*
=31	=31	=31	=31	=31
*ped	*	*	*	*
(32g-X\LLL	.	(8bb-XL 8gg-X 8ee-X 8b-X\	.	.
32e-X\	.	.	.	.
32B-X\	.	.	.	<
32G-X\JJJ)	.	.	.	.
*ped	*	*	*	*
(32fn\LLL	.	8cccn 8gg- 8ee- 8ccn\	.	.
32B-\	.	.	.	.
32G-\	.	.	.	.
32Fn\JJJ)	.	.	.	.
*ped	*	*	*	*
(32e-\LLL	.	8dddn 8bb- 8gg- 8ddn\	.	.
32B-\	.	.	.	.
32G-\	.	.	.	.
32E-X\JJJ)	.	.	.	.
*ped	*	*	*	*
(32cn\LLL	.	8eee-X 8bb- 8gg- 8ee-\	.	.
32G-\	.	.	.	.
32E-\	.	.	.	.
32Cn\JJJ)	.	.	.	.
*ped	*	*	*	*
(32B-\LLL	.	8fffn 8eee- 8bb- 8ffn\	.	.
32G-\	.	.	.	.
32E-\	.	.	.	.
32BB-X\JJJ)	.	.	.	.
*ped	*	*	*	*
(32G-/LLL	1	8ggg-XJ 8eee- 8bb- 8gg-\	.	[[
32E-/	2	.	.	.
32BB-/	3	.	.	.
*Xped	*	*	*	*
32EE-X/JJJ)	5	.	.	.
!!LO:LB:g=original
=32	=32	=32	=32	=32
*^	*	*	*	*
*ped	*	*	*	*	*
8AA-X 8AAA-X/	8ryy	.	4bbb-X 4fffn 4dddn 4bb-X\	.	ff
!	!	!	!LO:TX:b:i:t=grandioso	!	!
.	.	.	.	.	.
*	*	*below	*	*	*
8dn/L	4.cn 4.A-X 4.G-X\	1 3 4 5	.	.	>
*Xped	*	*	*	*	*
8e-X/	.	2	8aaa-XL 8eee-X 8cccn 8aa-X\	.	.
8fnJ 8d/	.	1 2	8fffn 8dddn 8bb-X 8ffn\	.	.
*ped	*	*	*	*	*
4a-X 4e- 4c 4G-\	4ryy	.	8eee- 8ccc 8aa- 8ee-X\	.	]
*Xped	*	*	*	*	*
.	.	.	8bb-XJ 8ee- 8ccn 8b-X\)	.	.
*v	*v	*	*	*	*
=33	=33	=33	=33	=33
*	*	*^	*	*
*Xtuplet	*	*	*	*	*
*ped	*	*Xtuplet	*	*	*
(48Fn/LLL	1	48r	4bb-X 4b-X\	.	.
*	*	*	*	*below	*
48D-X/	2	(48dd-X/LLL	.	2	.
48AA-X/	3	48ee-X/	.	3	.
48DD-X/	.	48dd-/	.	.	>
48AA-/	.	48ee-/	.	.	.
48D-/JJJ)	.	48dd-/JJJ	.	.	.
(48F/LLL	.	48ee-/LLL	.	.	.
48D-/	.	48dd-/	.	.	.
48AA-/	.	48ee-/	.	.	.
48DD-/	.	48dd-/	.	.	.
48AA-/	.	48ee-/	.	.	>
48D-/JJJ)	.	48dd-/JJJ	.	.	.
*	*	*	*	*above	*
(48F/LLL	.	8aa-XL 8a-X/	48r	5	.
48D-/	.	.	(48dd-X\LLL	.	.
48AA-/	.	.	48ee-X\	.	.
48DD-/	.	.	48dd-\	.	.
48AA-/	.	.	48ee-\	.	.
*Xped	*	*	*	*	*
48D-/JJJ)	.	.	48dd-\JJJ)	.	.
(48F/LLL	.	8ee- 8e-X/	48r	.	.
48D-/	.	.	(48a-\LLL	.	.
48AA-/	.	.	48b-\	.	.
48DD-/	.	.	48a-\	.	.
48AA-/	.	.	48b-\	.	.
48D-/JJJ)	.	.	48a-\JJJ)	.	.
(48F/LLL	.	8dd-X 8d-X/	48ryy	.	.
48D-/	.	.	(48a-\LLL	.	.
48AA-/	.	.	48b-\	.	.
48DD-/	.	.	48a-\	.	.
48AA-/	.	.	48b-\	.	.
48D-/JJJ)	.	.	48a-\JJJ)	.	]
(48F/LLL	.	8b-J 8B-X/)	48r	.	.
48D-/	.	.	(48d-\LLL	.	.
48AA-/	.	.	48e-\	.	.
48DD-/	.	.	48d-\	.	.
48AA-/	.	.	48e-\	.	.
48D-/JJJ)	.	.	48d-\JJJ)	.	.
!!LO:LB:g=original
=34	=34	=34	=34	=34	=34
*ped	*	*	*	*	*
!	!	!	!	!	!LO:DY:t=%s leggiero
48Fn/LLL	1	(48b-X~>/LLL	2ryy	5	pp
48D-X/	2	48e-X/	.	3	.
48AA-X/	3	48d-X/	.	2	.
48DD-X/	5	48B-X/	.	1	.
48AA-/	.	48d-/	.	.	.
48D-/JJJ	.	48e-/JJJ)	.	.	.
48F/LLL	.	(48a-X~>/LLL	.	.	.
48D-/	.	48e-/	.	.	.
48AA-/	.	48d-/	.	.	.
48DD-/	.	48A#/	.	.	.
48AA-/	.	48d-/	.	.	.
48D-/JJJ	.	48e-/JJJ)	.	.	.
48F/LLL	.	(48b-~>/LLL	.	.	.
48D-/	.	48e-/	.	.	.
48AA-/	.	48d-/	.	.	.
48DD-/	.	48B-/	.	.	.
48AA-/	.	48d-/	.	.	.
48D-/JJJ	.	48e-/JJJ)	.	.	.
48F/LLL	.	(48a-~>/LLL	.	.	.
48D-/	.	48e-/	.	.	.
48AA-/	.	48d-/	.	.	.
48DD-/	.	48A#/	.	.	.
48AA-/	.	48d-/	.	.	.
*Xped	*	*	*	*	*
48D-/JJJ	.	48e-/JJJ)	.	.	.
*ped	*above	*	*	*	*
(48d-X\LLL	1	(48cc-X/LLL	8cc-\L	5	.
48G-X\	2	48g-X/	.	3	.
48D-X\	3	48e-/	.	2	.
48GG-X\	5	48c-X/	.	1	.
48D-\	.	48e-/	.	.	.
48G-\JJJ)	.	48g-/JJJ)	.	.	.
(48d-\LLL	.	(48b--/LLL	8b--\J	5	.
48G-\	.	48g-/	.	3	.
48D-\	.	48e-/	.	2	.
48GG-\	.	48B--/	.	.	.
48D-\	.	48e-/	.	.	.
*Xped	*	*	*	*	*
48G-\JJJ)	.	48g-/JJJ)	.	.	.
!!LO:LB:g=original
=35	=35	=35	=35	=35	=35
*^	*	*	*	*	*
*ped	*	*	*	*	*	*
(48c#\LLL	2ryy	.	(48bn~>/LLL	2ryy	5	.
48F#\	.	.	48f#X/	.	3	.
48C#\	.	.	48d#X/	.	2	.
48FF#\	.	.	48Bn/	.	1	.
48C#\	.	.	48d#/	.	.	.
48F#\JJJ)	.	.	48f#/JJJ)	.	.	.
(48c#\LLL	.	.	(48an~>/LLL	.	5	.
48F#\	.	.	48f#/	.	3	.
48C#\	.	.	48d#/	.	2	.
48FF#\	.	.	48An/	.	1	.
48C#\	.	.	48d#/	.	.	.
48F#\JJJ)	.	.	48f#/JJJ)	.	.	.
(48c#\LLL	.	.	(48b~>/LLL	.	.	.
48F#\	.	.	48f#/	.	.	.
48C#\	.	.	48d#/	.	.	.
48FF#\	.	.	48B/	.	.	.
48C#\	.	.	48d#/	.	.	.
48F#\JJJ)	.	.	48f#/JJJ)	.	.	.
(48c#\LLL	.	.	(48a~>/LLL	.	.	.
48F#\	.	.	48f#/	.	.	.
48C#\	.	.	48d#/	.	.	.
48FF#\	.	.	48A/	.	.	.
48C#\	.	.	48d#/	.	.	.
*Xped	*	*	*	*	*	*
48F#\JJJ)	.	.	48f#/JJJ)	.	.	.
*ped	*	*	*	*	*	*
(8en/L	48e\LLL	.	48gg#/LLL	8gg#\L	5	.
*	*	*above	*	*	*	*
.	48An\	2	48dd#/	.	3	.
.	48F#\	3	48cc#/	.	2	.
.	48C#\	5	48g#/	.	.	.
.	48F#\	.	48cc#/	.	.	.
.	48A\JJJ	.	48dd#/JJJ	.	.	.
8d#/J)	48d#\LLL	.	48ff#/LLL	8ff#\J	4	.
.	48A\	.	48dd#/	.	3	.
.	48F#\	.	48cc#/	.	2	.
.	48C#\	.	48f#/	.	.	.
.	48F#\	.	48cc#/	.	.	.
*Xped	*	*	*	*	*	*
.	48A\JJJ	.	48dd#/JJJ	.	.	.
!!LO:LB:g=original
=36	=36	=36	=36	=36	=36	=36
*ped	*	*	*	*	*	*
(48c#\LLL	2ryy	.	48b/LLL	2ryy	.	.
48F#\	.	.	48f#/	.	.	.
48C#\	.	.	48d#/	.	.	.
48FF#\	.	.	48B/	.	.	.
48C#\	.	.	48d#/	.	.	.
48F#\JJJ)	.	.	48f#/JJJ	.	.	.
(48c#\LLL	.	.	48an/LLL	.	.	.
48F#\	.	.	48f#/	.	.	.
48C#\	.	.	48d#/	.	.	.
48FF#\	.	.	48An/	.	.	.
48C#\	.	.	48d#/	.	.	.
48F#\JJJ)	.	.	48f#/JJJ	.	.	.
(48c#\LLL	.	.	48b/LLL	.	.	.
48F#\	.	.	48f#/	.	.	.
48C#\	.	.	48d#/	.	.	.
48FF#\	.	.	48B/	.	.	.
48C#\	.	.	48d#/	.	.	.
48F#\JJJ)	.	.	48f#/JJJ	.	.	.
(48c#\LLL	.	.	48a/LLL	.	.	.
48F#\	.	.	48f#/	.	.	.
48C#\	.	.	48d#/	.	.	.
48FF#\	.	.	48A/	.	.	.
48C#\	.	.	48d#/	.	.	.
*Xped	*	*	*	*	*	*
48F#\JJJ)	.	.	48f#/JJJ	.	.	.
*ped	*	*	*	*	*	*
8g#/L	48g#\LLL	.	8bb/L	48bb\LLL	.	.
.	48d#\	2	.	48ff#\	.	.
.	48c#\	3	.	48dd#\	.	.
.	48F#\	5	.	48b\	.	.
.	48c#\	.	.	48dd#\	.	.
.	48d#\JJJ	.	.	48ff#\JJJ	.	.
8f#/J	48f#\LLL	.	8aan/J	48aa\LLL	.	.
.	48d#\	.	.	48ff#\	.	.
.	48c#\	.	.	48dd#\	.	.
.	48F#\	.	.	48a\	.	.
.	48c#\	.	.	48dd#\	.	.
*Xped	*	*	*	*	*	*
.	48d#\JJJ	.	.	48ff#\JJJ	.	.
!!LO:PB:g=original
=37	=37	=37	=37	=37	=37	=37
*	*	*	*	*	*	*^
*ped	*	*	*	*	*	*	*
!!LO:TX:a:B:t=Poco tranquillo, tempo I.
!	!	!	!	!	!	!LO:DY:a:rj	!LO:DY:b=2
8r	2c#: 2An: 2En:\	.	(48f#/LLL	8f#\L	1	pp	p
.	.	.	48an/	.	2	.	.
.	.	.	48cc#/	.	3	.	.
.	.	.	48ff#/	.	5	.	.
.	.	.	48cc#/	.	.	.	.
.	.	.	48a/JJJ	.	.	.	.
!	!	!	!	!	!	!LO:HP:b=2	!
!LO:TX:b:i:t=la melodia marcato	!	!	!	!	!	!LO:DY:a=2:rj	!
(8en/L	.	1	48g#/LLL	8g#\	1	mf <	.
.	.	.	48cc#/	.	2	.	.
.	.	.	48een/	.	3	.	.
.	.	.	48gg#/	.	.	.	.
.	.	.	48ee/	.	.	[[	.
.	.	.	48cc#/JJJ	.	.	.	.
!	!	!	!	!	!	!LO:HP:b=2	!
8g#/	.	2	48a/LLL	8a\	1	>	.
.	.	.	48cc#/	.	2	.	.
.	.	.	48ee/	.	3	.	.
.	.	.	48aan/	.	.	.	.
.	.	.	48ee/	.	.	.	.
.	.	.	48cc#/JJJ	.	.	.	.
8f#/J)	.	3	48b/LLL	8b\	1	]	.
.	.	.	48cc#/	.	2	.	.
.	.	.	48ee/	.	3	.	.
.	.	.	48bb/	.	.	.	.
.	.	.	48ee/	.	.	.	.
.	.	.	48cc#/JJJ	.	.	.	.
(8e::/L	4c#:: 4A:: 4E::\	1	48cc#/LLL	8cc#\	1	.	.
.	.	.	48ee/	.	2	.	.
.	.	.	48aa/	.	4	.	.
.	.	.	48ccc#/	.	.	.	.
.	.	.	48aa/	.	.	.	.
.	.	.	48ee/JJJ	.	.	.	.
16c#/L	.	2	48ee/LLL	8ee\J	1	.	.
.	.	.	48aa/	.	2	.	.
.	.	.	48ccc#/	.	4	.	.
16dn/JJ)	.	1	48eeen/	.	.	.	.
.	.	.	48ccc#/	.	.	.	.
.	.	.	48aa/JJJ	.	.	.	.
*	*	*	*	*	*	*v	*v
!!LO:LB:g=original
=38	=38	=38	=38	=38	=38	=38
*ped	*	*	*	*	*	*
&(8en/L	4B 4G# 4Dn\	1	48een/LLL	4ee\	.	.
.	.	.	48gg#/	.	.	.
.	.	.	48ccc#/	.	.	.
!	!	!	!LO:SIC:v:o=48eee#/	!	!	!
.	.	.	48eee/	.	.	.
.	.	.	48ccc#/	.	.	.
.	.	.	48gg#/JJJ	.	.	.
8f#/J	.	1	48ee/LLL	.	.	.
.	.	.	48gg#/	.	.	.
.	.	.	48bb/	.	.	.
!	!	!	!LO:SIC:v:o=48eee#/	!	!	!
.	.	.	48eee/	.	.	.
.	.	.	48bb/	.	.	.
.	.	.	48gg#/JJJ	.	.	.
*ped	*	*below	*	*	*	*
!LO:SIC:v:o=(8E#^/L	!	!	!	!	!	!LO:HP:b=2
(8En^/L	4e 4B 4Dn\&)	1 2 4 5	48cc#/LLL	8cc#\L	.	<
.	.	.	48ee/	.	.	.
.	.	.	48gg#/	.	.	.
.	.	.	48ccc#/	.	.	.
.	.	.	48gg#/	.	.	.
.	.	.	48ee/JJJ	.	.	.
*	*	*above	*	*	*	*
16F#^/L	.	3	48b/LLL	8b\J	.	.
.	.	.	48ee/	.	.	.
.	.	.	48gg#/	.	.	.
16G#^/JJ	.	2	48bb/	.	.	.
.	.	.	48gg#/	.	.	.
.	.	.	48ee/JJJ	.	.	.
*ped	*	*	*	*	*	*
!	!LO:SIC:v:o=4E# 4C#\	!	!	!	!	!
8An/L	4E 4C#\	1-2	48b/LLL	8b\L	.	.
.	.	.	48cc#/	.	.	.
.	.	.	48ee/	.	.	.
.	.	.	48bb/	.	.	.
.	.	.	48gg#/	.	.	.
.	.	.	48ee/JJJ	.	.	.
8c#/J)	.	1	48an/LLL	8a\J	.	[
.	.	.	48cc#/	.	.	.
.	.	.	48ee/	.	.	.
!	!	!	!LO:SIC:v:o=48aa#/	!	!	!
.	.	.	48aa/	.	.	.
.	.	.	48ee/	.	.	.
.	.	.	48cc#/JJJ	.	.	.
!!LO:LB:g=original
=39	=39	=39	=39	=39	=39	=39
*	*	*^	*	*	*	*
*ped	*	*	*	*	*	*	*
!	!	!	!	!	!	!	!LO:HP:b=2
(8en/L	4An 4F# 4Cn\	1	.	48b/LLL	8b\L	1	<
.	.	.	.	48een/	.	2	.
.	.	.	.	48aan/	.	4	.
.	.	.	.	48bb/	.	.	.
.	.	.	.	48aa/	.	.	.
.	.	.	.	48ee/JJJ	.	.	.
8f#/J	.	1	.	48an/LLL	8a\	1	.
.	.	.	.	48ee/	.	2	.
.	.	.	.	48aa/	.	4	.
.	.	.	.	48cccn/	.	5	.
.	.	.	.	48aa/	.	.	.
.	.	.	.	48ee/JJJ	.	.	[[
*ped	*	*	*	*	*	*	*
4g#::/	2dn:: 2G#:: 2En:: 2BB-X::\	1 2	2 3 5	48ccn/LLL	8cc\	1	.
!	!	!	!	!	!	!	!LO:HP:b=2
.	.	.	.	48gg#/	.	2	>
.	.	.	.	48ccc/	.	4	.
!	!	!	!	!LO:SIC:v:o=48eee#/	!	!	!
.	.	.	.	48eeen/	.	5	.
.	.	.	.	48ccc/	.	.	.
.	.	.	.	48gg#/JJJ	.	.	.
.	.	.	.	48ddn/LLL	8dd\J	.	.
.	.	.	.	48gg#/	.	.	.
.	.	.	.	48ccc/	.	.	.
!	!	!	!	!LO:SIC:v:o=48eee#/	!	!	!
.	.	.	.	48eee/	.	.	.
.	.	.	.	48ccc/	.	.	.
.	.	.	.	48gg#/JJJ	.	.	.
8f#/L	.	3	.	48ee/LLL	4ee\	.	.
.	.	.	.	48gg#/	.	.	.
.	.	.	.	48ccc/	.	.	.
!	!	!	!	!LO:SIC:v:o=48eee#/	!	!	!
.	.	.	.	48eee/	.	.	.
.	.	.	.	48ccc/	.	.	.
.	.	.	.	48gg#/JJJ	.	.	.
8e/J)	.	1	.	48ee/LLL	.	.	]
.	.	.	.	48gg#/	.	.	.
.	.	.	.	48ccc/	.	.	.
!	!	!	!	!LO:SIC:v:o=48eee#/	!	!	!
.	.	.	.	48eee/	.	.	.
.	.	.	.	48ccc/	.	.	.
.	.	.	.	48gg#/JJJ)	.	.	.
*	*	*v	*v	*	*	*	*
!!LO:LB:g=original
=40	=40	=40	=40	=40	=40	=40
*	*	*	*	*^	*	*
*	*tuplet	*	*	*	*	*	*
*ped	*	*	*8va	*	*	*	*
!	!	!	!	!	!	!	!LO:DY:rj
(>8B/L	48B\LLL	1	(8eeenL 8een/	2bb 2ggn\	4.ryy	.	f
.	48Gn\	2	.	.	.	.	.
.	48En\	3	.	.	.	.	.
.	48AAn\	.	.	.	.	.	.
.	48E\	.	.	.	.	.	.
.	48G\JJJ	.	.	.	.	.	.
*	*Xtuplet	*	*	*	*	*	*
8An/J	48A\LLL	.	8fff#J 8ff#/	.	.	.	.
.	48G\	.	.	.	.	.	.
.	48E\	.	.	.	.	.	.
.	48AA\	.	.	.	.	.	.
.	48E\	.	.	.	.	.	.
*Xped	*	*	*	*	*	*	*
.	48G\JJJ	.	.	.	.	.	.
*ped	*	*	*	*	*	*	*
4B/)	48B\LLL	.	4eee 4ee/)	.	.	.	.
*	*	*	*X8va	*	*	*	*
.	48G\	.	.	.	.	.	.
.	48E\	.	.	.	.	.	.
.	48AA\	.	.	.	.	.	.
.	48E\	.	.	.	.	.	.
.	48G\JJJ	.	.	.	.	.	.
*	*	*	*Xbrackettup	*	*Xbrackettup	*	*
*	*	*	*tuplet	*	*tuplet	*below	*
.	56ryy	.	.	.	(56B<\LLL	1	.
.	56ryy	.	.	.	56c#<\	4	pp
.	56ryy	.	.	.	56f#<\JJJ	2	.
.	56ryy	.	.	.	56e/LLL	1	.
.	56ryy	.	.	.	56g/	2	.
.	56ryy	.	.	.	56b/	3	.
.	56ryy	.	.	.	56ee/JJJ)	5	.
!	!	!	!LO:TX:b:i:t=leggierissimo	!	!	!	!
4ryy	56ryy	.	(56b\LLL	4ryy	4ryy	4	.
.	56ryy	.	56cc#\	.	.	3	.
.	56ryy	.	56ff#\JJJ	.	.	1	.
.	56ryy	.	56ee/LLL	.	.	.	.
.	56ryy	.	56ggn/	.	.	.	.
.	56ryy	.	56bb/	.	.	.	.
.	56ryy	.	56eeen/JJJ)	.	.	.	.
*	*	*	*8va	*	*	*	*
.	56ryy	.	(56bb\LLL	.	.	.	.
.	56ryy	.	56ccc#\	.	.	.	.
.	56ryy	.	56fff#\JJJ	.	.	.	.
.	56ryy	.	56eee/LLL	.	.	.	.
.	56ryy	.	56ggg/	.	.	.	.
.	56ryy	.	56bbb/	.	.	.	.
*Xped	*	*	*	*	*	*	*
.	56ryy	.	56eeee/JJJ)	.	.	.	.
*	*	*	*X8va	*	*	*	*
*v	*v	*	*	*	*	*	*
*	*	*v	*v	*v	*	*
!!LO:LB:g=original
=41	=41	=41	=41	=41
*M2/4	*	*M2/4	*	*
*	*	*^	*	*
*ped	*below	*	*	*above	*
(32DDn/LLL	5	(8an/L	24en\LL	3 5	p
32AAn/	3	.	.	.	.
.	.	.	24dn\	2	.
32Dn/	2	.	.	.	.
.	.	.	24A#\JJ	1	.
*Xped	*	*	*	*	*
32F#/JJJ)	1	.	.	.	.
*ped	*	*	*	*	*
(32GGn/LLL	.	8b/	24f#\LL	3 5	.
32D/	3	.	.	.	.
.	.	.	24d\	2	.
32F#/	2	.	.	.	.
.	.	.	24B\JJ	1	.
*Xped	*	*	*	*	*
32Gn/JJJ)	1	.	.	.	.
*ped	*	*	*	*	*
(32DD/LLL	.	8a/	24e\LL	.	.
32AA/	.	.	.	.	.
.	.	.	24d\	.	.
32D/	.	.	.	.	.
.	.	.	24A#\JJ	.	.
*Xped	*	*	*	*	*
32F#/JJJ)	.	.	.	.	.
*ped	*	*	*	*	*
(32GG/LLL	.	8b/J	24f#\LL	.	.
32D/	.	.	.	.	.
.	.	.	24d\	.	.
32F#/	.	.	.	.	.
.	.	.	24B\JJ	.	.
*Xped	*	*	*	*	*
32G/JJJ)	.	.	.	.	.
=42	=42	=42	=42	=42	=42
*ped	*above	*	*	*	*
(32AAn\LLL	5	4cc#/)	24f#\LL	3 5	.
32C#\	4	.	.	.	.
.	.	.	24d#X\	2	.
32D#X\	3	.	.	.	.
.	.	.	[24c#\JJ	1	.
32F#\JJ	2	.	.	.	.
*	*below	*	*	*	*
8An\J)	1	.	16c#\LL]	.	.
.	.	.	(>64c#\LL	1	.
.	.	.	64d#\	2	.
.	.	.	64f#\	3	.
.	.	.	64cc#\JJJJ)	5	.
*	*	*tuplet	*	*	*
72ryy	.	(72Any<\LLLL	4ryy	.	ppp
72ryy	.	72c#<\	.	.	.
72ryy	.	72d#<\	.	.	.
72ryy	.	72f#<\	.	.	.
72ryy	.	72an<\JJJJ	.	.	.
72ryy	.	72cc#/LLLL	.	.	.
72ryy	.	72dd#/	.	.	.
72ryy	.	72ff#/	.	.	.
72ryy	.	72ccc#/JJJJ)	.	.	.
72ryy	.	(72an\LLLL	.	.	.
72ryy	.	72cc#\	.	.	.
72ryy	.	72dd#\	.	.	.
72ryy	.	72ff#\	.	.	.
!	!	!LO:SIC:v:o=72aa#\JJJJ	!	!	!
72ryy	.	72aa\JJJJ	.	.	.
*	*	*8va	*	*	*
72ryy	.	72ccc#/LLLL	.	.	.
72ryy	.	72ddd#/	.	.	.
72ryy	.	72fff#/	.	.	.
72ryy	.	72cccc#/JJJJ)	.	.	.
*	*	*X8va	*	*	*
!!LO:PB:g=original
=43	=43	=43	=43	=43	=43
*ped	*	*	*	*	*
(32DDn/LLL	.	(8an/L	24en\LL	.	.
32AAn/	.	.	.	.	.
.	.	.	24dn\	.	.
32Dn/	.	.	.	.	.
.	.	.	24An\JJ	.	.
32F#/JJJ)	.	.	.	.	.
*ped	*	*	*	*	*
(32GGn/LLL	.	8b/	24f#\LL	.	.
32D/	.	.	.	.	.
.	.	.	24d\	.	.
32F#/	.	.	.	.	.
.	.	.	24B\JJ	.	.
32Gn/JJJ)	.	.	.	.	.
*ped	*	*	*	*	*
(32DD/LLL	.	8a/	24e\LL	.	.
32AA/	.	.	.	.	.
.	.	.	24d\	.	.
32D/	.	.	.	.	.
.	.	.	24A\JJ	.	.
32F#/JJJ)	.	.	.	.	.
*ped	*	*	*	*	*
(32GG/LLL	.	8b/J	24f#\LL	.	.
32D/	.	.	.	.	.
.	.	.	24d\	.	.
32F#/	.	.	.	.	.
.	.	.	24B\JJ	.	.
32G/JJJ)	.	.	.	.	.
=44	=44	=44	=44	=44	=44
*ped	*	*	*	*	*
(32AAn\LLL	.	4cc#/)	24f#\LL	.	.
32C#\	.	.	.	.	.
.	.	.	24d#X\	.	.
32D#\	.	.	.	.	.
.	.	.	[24c#\JJ	.	.
32F#\JJ	.	.	.	.	.
8An\J)	.	.	16c#\LL]	.	.
.	.	.	(>64c#\LL	.	.
.	.	.	64d#\	.	.
.	.	.	64f#\	.	.
.	.	.	64cc#\JJJJ)	.	.
*tuplet	*	*	*	*	*
N(80A\LLLL	.	16ryy	4ryy	.	.
80c#\	.	.	.	.	ppp
80d#\	.	.	.	.	.
80f#\	.	.	.	.	.
80an\JJJJ	.	.	.	.	.
16ryy	.	64cc#/LLLL	.	.	.
.	.	64dd#/	.	.	.
.	.	64ff#/	.	.	.
.	.	64ccc#/JJJJN)	.	.	.
N(80an>\LLLL	.	16ryy	.	.	.
80cc#>\	.	.	.	.	.
80dd#>\	.	.	.	.	.
80ff#>\	.	.	.	.	.
80aan>\JJJJ	.	.	.	.	.
*	*	*8va	*	*	*
16ryy	.	64ccc#/LLLL	.	.	.
.	.	64ddd#/	.	.	.
.	.	64fff#/	.	.	.
*Xped	*	*	*	*	*
.	.	64cccc#/JJJJN)	.	.	.
*	*	*X8va	*	*	*
!!LO:LB:g=original
=45	=45	=45	=45	=45	=45
*ped	*	*	*	*	*
(40AAn\LLL	.	(8cc#/L	24f#\LL	3 5	p
40C#\	.	.	.	.	.
.	.	.	24d#\	.	.
40D#\	.	.	.	.	.
40F#\	.	.	.	.	.
.	.	.	24c#\JJ	.	.
40An\JJJ)	.	.	.	.	.
*ped	*above	*	*	*	*
(32C#\LLL	5	8dd#/	24an\LL	.	.
32F#\	3	.	.	.	.
.	.	.	24f#\	.	.
32A\	2	.	.	.	.
.	.	.	24d#\JJ	.	.
32c#\JJJ)	1	.	.	.	.
*ped	*	*	*	*	*
(40AA\LLL	.	8cc#/	24f#\LL	.	.
40C#\	.	.	.	.	.
.	.	.	24d#\	.	.
40D#\	.	.	.	.	.
40F#\	.	.	.	.	.
.	.	.	24c#\JJ	.	.
40A\JJJ)	.	.	.	.	.
*ped	*	*	*	*	*
(32C#\LLL	.	8dd#/J	24a\LL	.	.
32F#\	.	.	.	.	.
.	.	.	24f#\	.	.
32A\	.	.	.	.	.
.	.	.	24d#\JJ	.	.
32c#\JJJ)	.	.	.	.	.
=46	=46	=46	=46	=46	=46
*ped	*	*	*	*	*
(24D#\LL	5	4ff#/)	24cc#\LL	.	.
24An\	3	.	24an\	.	.
24c#\J	2	.	[24f#\JJ	.	.
*	*below	*	*	*	*
8d#\J)	1	.	16f#\LL]	.	.
.	.	.	(>64f#\LL	1	.
.	.	.	64a\	2	.
.	.	.	64cc#\	3	.
.	.	.	64ff#\JJJJ)	5	.
N(64d#>\LLLL	.	16ryy	4ryy	.	ppp
64any>\	.	.	.	.	.
64cc#>\	.	.	.	.	.
64dd#>\JJJJ	.	.	.	.	.
16ryy	.	64ff#/LLLL	.	.	.
.	.	64aan/	.	.	.
.	.	64ccc#/	.	.	.
.	.	64fff#/JJJJN)	.	.	.
N(64dd#>\LLLL	.	16ryy	.	.	.
64aany>\	.	.	.	.	.
64ccc#>\	.	.	.	.	.
64ddd#>\JJJJ	.	.	.	.	.
*	*	*8va	*	*	*
16ryy	.	64fff#/LLLL	.	.	.
.	.	64aaa/	.	.	.
.	.	64cccc#/	.	.	.
*Xped	*	*	*	*	*
.	.	64ffff#/JJJJN)	.	.	.
*	*	*X8va	*	*	*
*	*	*v	*v	*	*
!!LO:LB:g=original
=47||	=47||	=47||	=47||	=47||
*k[f#c#g#d#]	*	*k[f#c#g#d#]	*	*
*M3/4	*	*M3/4	*	*
*ped	*	*8va	*below	*
!	!	!LO:TX:t=P:problem:łuk	!	!
!	!	!LO:TX:b:i:t=quasi cadenza	!	!
16ryy	.	64bbb/LLLL	5	.
.	.	64fff#/	3	.
.	.	64ddd#/	2	.
.	.	64bb/JJJJ	1	.
*clefG2	*below	*X8va	*	*
64aa\LLLL	1	16ryy	.	.
64ff#\	2	.	.	.
64dd#\	3	.	.	.
64cc#\JJJJ	4	.	.	.
*	*	*8va	*	*
!	!	!LO:TX:t=P:problem:łuk	!	!
16ryy	.	64aaa/LLLL	5	.
.	.	64fff#/	3	.
.	.	64ddd#/	2	.
.	.	64aa/JJJJ	1	.
*	*	*X8va	*	*
64gg#\LLLL	1	16ryy	.	.
64ff#\	2	.	.	.
64dd#\	3	.	.	.
64cc#\JJJJ	4	.	.	.
!	!	!LO:TX:t=P:problem:łuk	!	!
16ryy	.	64bb\LLLL	.	.
.	.	64ff#\	.	.
.	.	64dd#\	.	.
.	.	64b\JJJJ	.	.
64a/LLLL	.	16ryy	.	.
64f#/	.	.	.	.
64d#/	.	.	.	.
64c#/JJJJ	.	.	.	.
!	!	!LO:TX:t=P:problem:łuk	!	!
16ryy	.	64aa\LLLL	.	.
.	.	64ff#\	.	.
.	.	64dd#\	.	.
.	.	64a\JJJJ	.	.
64g#/LLLL	.	16ryy	.	.
64f#/	.	.	.	.
64d#/	.	.	.	.
64c#/JJJJ	.	.	.	.
!	!	!LO:TX:t=P:problem:łuk	!	!
16ryy	.	64b/LLLL	.	.
.	.	64f#/	.	.
.	.	64d#/	.	.
.	.	64B/JJJJ	.	.
*clefF4	*	*	*	*
64A\LLLL	.	16ryy	.	.
64F#\	.	.	.	.
64D#\	.	.	.	.
64C#\JJJJ	.	.	.	.
!	!	!LO:TX:t=P:problem:łuk	!	!
16ryy	.	64a/LLLL	.	.
.	.	64f#/	.	.
.	.	64d#/	.	.
.	.	64A/JJJJ	.	.
64G#\LLLL	.	16ryy	.	.
64F#\	.	.	.	.
64D#\	.	.	.	.
*Xped	*	*	*	*
64C#\JJJJ	.	.	.	.
!!LO:LB:g=original
=48	=48	=48	=48	=48
*ped	*	*	*	*
!!LO:TX:a:B:t=Tranquillo.
8BB 8FF# 8BBB\	.	8c#< 8A< 8D#<~/	1 2 4	mf
*Xped	*	*	*	*
4BB 4FF# 4BBB\	.	4c#< 4A< 4D#<~/	.	.
*ped	*	*	*	*
8BB 8FF# 8BBB\	.	8c#< 8A< 8D#<~;/	.	.
!	!	!LO:TX:t=P:problem:łuk	!	!
16ryy	.	64bb/LLLL	.	ppp
.	.	64ff#/	.	.
!	!	!LO:TX:b:i:t=brillante	!	!
.	.	64dd#/	.	.
.	.	64b/JJJJ	.	.
64a>\LLLL	.	16ryy	.	.
64f#>\	.	.	.	.
64d#>\	.	.	.	.
64c#>\JJJJ	.	.	.	.
16ryy	.	64aa/LLLL	.	.
.	.	64ff#/	.	.
.	.	64dd#/	.	.
.	.	64a/JJJJ	.	.
64g#>\LLLL	.	16ryy	.	.
64f#>\	.	.	.	.
64d#>\	.	.	.	.
*Xped	*	*	*	*
64c#>\JJJJ,	.	.	.	.
=49	=49	=49	=49	=49
*ped	*	*	*	*
8GGn 8DDn 8GGGn\	.	8B< 8Gn< 8Dn< 8BB<~/	.	.
4GG 4DD 4GGG\	.	4B< 4G< 4D< 4BB<~/	.	.
8GG 8DD 8GGG\	.	8B< 8G< 8D< 8BB<~/	.	.
!!LO:TX:a:B:t=Rubato in tempo.
!LO:TX:t=P:problem:mixed beam	!	!	!	!
!LO:TUP:a	!	!	!	!
(40Dny/LLL	5	8ryy	.	.
40Gny/	3	.	.	.
40An/	2	.	.	.
40B/	1	.	.	.
40dn>\	1	.	.	.
40e>\	.	8ryy	.	<
40f#>\	.	.	.	.
40gn>\	1	.	.	.
40an>\	.	.	.	.
40b>\JJJ,	.	.	.	[
!!LO:LB:g=original
=50	=50	=50	=50	=50
*^	*	*^	*	*
*ped	*	*above	*	*	*	*
!	!	!	!LO:TX:a:i:t=m.g.	!	!	!
2cc#>^<\)	8rEE	3	8rc<	2ryy	.	.
.	4BB 4FF# 4BBB\	.	4c#< 4A< 4D#<~/	.	.	.
.	8BB 8FF# 8BBB\	.	8c#< 8A< 8D#<~/	.	.	.
!	!	!	!LO:TX:t=P:problem:łuk	!	!	!
4ryy	16ryy	.	64bb/LLLL	4ryy	.	.
.	.	.	64ff#/	.	.	.
.	.	.	64dd#/	.	.	.
.	.	.	64b/JJJJ	.	.	ppp
.	64a>\LLLL	.	16ryy	.	.	.
.	64f#>\	.	.	.	.	.
.	64d#>\	.	.	.	.	.
.	64c#>\JJJJ	.	.	.	.	.
.	16ryy	.	64aa/LLLL	.	.	.
.	.	.	64ff#/	.	.	.
.	.	.	64dd#/	.	.	.
.	.	.	64a/JJJJ	.	.	.
.	64g#>\LLLL	.	16ryy	.	.	.
.	64f#>\	.	.	.	.	.
.	64d#>\	.	.	.	.	.
*Xped	*	*	*	*	*	*
.	64c#>\JJJJ,>	.	.	.	.	.
*v	*v	*	*v	*v	*	*
=51	=51	=51	=51	=51
*ped	*	*	*	*
8FFn 8CCn 8FFFn\	.	8A< 8Fn< 8Cn< 8AA<~/	.	.
4FF 4CC 4FFF\	.	4A< 4F< 4C< 4AA<~/	.	.
8FF 8CC 8FFF\	.	8A< 8F< 8C< 8AA<~/	.	.
*	*below	*	*	*
!LO:TX:t=P:problem:mixed beam	!	!	!	!
!LO:TUP:a	!	!	!	!
(48Cn/LLL	5	4ryy	.	.
48Fn/	3	.	.	.
48Gn/	2	.	.	.
48A/	1	.	.	.
*	*above	*	*	*
48cn>\	1	.	.	.
48dn>\	.	.	.	.
48e>\	.	.	.	.
48fn>\	1	.	.	.
48gn>\	.	.	.	.
48a>\	.	.	.	.
48b>\	.	.	.	.
*Xped	*	*	*	*
48ccn>\JJJ	.	.	.	.
=52	=52	=52	=52	=52
*^	*	*^	*	*
*ped	*	*below	*	*	*	*
!	!	!	!LO:TX:b:i:t=m.g.	!	!	!
2cc#X>~\);	4r	3	4ryy	2ryy	.	.
.	8BB 8FF# 8BBB\	.	8A< 8D#</	.	.	.
.	4BB 4FF# 4BBB\	.	4A< 4D#</	.	.	.
4ryy	.	.	.	4ryy	.	.
*Xped	*	*	*	*	*	*
.	8BB 8FF# 8BBB\	.	8A< 8D#<;/,	.	.	.
*v	*v	*	*v	*v	*	*
!!LO:PB:g=original
=53	=53	=53	=53	=53
*^	*	*	*	*
*Xtuplet	*	*	*	*	*
*cue	*	*	*	*	*
(48Dn/LLL	2ryy	.	4ryy	.	.
48Gn/	.	.	.	.	.
48An/	.	.	.	.	.
48B/	.	.	.	.	.
48dn>\	.	.	.	.	.
48e>\	.	.	.	.	.
48f#>\	.	.	.	.	.
48gn>\	.	.	.	.	.
48a>\	.	.	.	.	.
48b>\	.	.	.	.	.
48ccn>\	.	.	.	.	.
48ddn>\JJJ	.	.	.	.	.
*Xcue	*	*	*	*	*
!	!	!	!LO:TX:b:i:t=poco rit.	!	!
.	.	.	.	.	.
*ped	*	*	*	*	*
!	!	!	!LO:TX:a:i:t=m.g.	!	!
2dd#X>~;/)	.	3	4ryy	.	.
.	4BB 4FF# 4BBB\	.	4c#X< 4A< 4D#X<;/	.	.
*Xped	*	*	*	*	*
*v	*v	*	*	*	*
=54||	=54||	=54||	=54||	=54||
*	*	*^	*	*
*ped	*	*	*	*	*
!!LO:TX:a:B:t=Poco più mosso, molto agitato.
8EE 8EEE/	.	8r	8ryy	.	mf
8G#\L	2	[8bL [<8B^/	8f#\	3	.
(16E\L	3	8b] 8B/]	4e\	2	<
16BB\	5	.	.	.	.
*	*	*	*	*above	*
16E\	3	16cc#L 16c#^/	.	4	.
16G#\JJ	2	16dd#J 16d#^/	.	.	.
16c#\LL	1	8ee 8e^/	8cc#\L	.	.
16G#\	2	.	.	.	.
16E\	3	16ff#L 16f#^/	8b\J	.	.
16BB\JJ)	5	16gg#JJ 16g#^/	.	.	[
*Xped	*	*	*	*	*
=55	=55	=55	=55	=55	=55
*^	*	*	*	*	*
*ped	*	*above	*	*	*	*
4GGn 4GGGn/	4ryy	.	4ggn 4ddn/	(>8bbL 8b\	5	<
.	.	.	.	8ccc# 8cc#\	4	.
!	!	!	!LO:TX:b:i:t=marcato	!	!	!
8e/L	4B 4Gn 4Dn\	1	4bb 4gg/	8eee 8ee\	.	.
8dn/	.	1	.	8dddn 8dd\	.	.
!!LO:TX:a:i:t=rit.
8a/	4d 4B 4G\	.	4ddd 4bb/	8aaa 8aa\	.	.
!LO:SIC:v:o=8g#/J	!	!	!	!	!	!
8g/J	.	.	.	8gggnJ 8gg\)	.	.
*Xped	*	*	*	*	*	*
*v	*v	*	*	*	*	*
!!LO:LB:g=original
=56	=56	=56	=56	=56	=56
*ped	*	*	*	*	*
!!LO:TX:a:i:t=a tempo
8EE 8EEE/	.	8r	8ryy	.	.
8G#\L	.	[8bL [<8B^/	8f#\	.	.
(16E\L	.	8b] 8B/]	4e\	.	.
16BB\	.	.	.	.	.
16E\	.	16cc#L 16c#^/	.	.	.
16G#\JJ	.	16dd#J 16d#^/	.	.	.
16c#\LL	.	8ee 8e^/	8cc#\L	.	.
16G#\	.	.	.	.	.
16E\	.	16ff#L 16f#^/	8b\J	.	.
16BB\JJ)	.	16gg#JJ 16g#^/	.	.	.
*Xped	*	*	*	*	*
=57	=57	=57	=57	=57	=57
*^	*	*	*	*	*
*ped	*	*	*	*	*	*
4GGn 4GGGn/	4ryy	.	4ggn 4ddn/	(>8bbL 8b\	.	.
.	.	.	.	8ccc# 8cc#\	.	.
(8e/L	4B 4Gn 4Dn\	.	4bb 4gg/	8eee 8ee\	.	.
8dn/	.	.	.	8dddn 8dd\	.	.
8a/	4d 4B 4G\	.	4ddd 4bb/	8aaa 8aa\	.	.
!LO:SIC:v:o=8g#/J)	!	!	!	!	!	!
8g/J)	.	.	.	8gggJ 8gg\)	.	.
*Xped	*	*	*	*	*	*
=58	=58	=58	=58	=58	=58	=58
*ped	*	*	*	*	*	*
8EE-X 8EEE-X/	8ryy	.	8r	2ryy	.	ff
*	*	*	*8va	*	*	*
8B-X/L	4.Gn 4.E-X 4.BB-X\	1	(>8gggnL 8eee-X 8bb-X 8ggn\	.	.	.
8cn/	.	2	8.bbb-X 8.bb-\	.	4	.
8e-X/J	.	1	.	.	.	.
*Xped	*	*	*	*	*	*
.	.	.	16gggJk 16gg\)	.	.	.
*tuplet	*	*	*	*	*	*
*ped	*	*	*	*	*	*
!LO:TUP:a	!	!	!	!	!	!
(48BBBn\LLL	4ryy	4	(<8.gggL 8.gg/	4ddd#X 4bbn\	.	.
!	!	!	!	!	!	!LO:HP:b=2
48CC#X\	.	3	.	.	.	<
48DD#X\	.	2	.	.	.	.
48AA\JJ	.	1	.	.	.	.
48BBn\LL	.	4	.	.	.	.
48C#\	.	.	.	.	.	.
48D#\	.	.	.	.	.	.
48A\JJ	.	.	.	.	.	.
48B-\LL	.	4	.	.	.	.
48c\	.	.	16fff#Jk 16ff#/)	.	4	[[
48d#\	.	.	.	.	.	.
*Xped	*	*	*	*	*	*
48a\JJJ)	.	.	.	.	.	.
!!LO:LB:g=original
=59	=59	=59	=59	=59	=59	=59
*ped	*	*	*	*	*	*
8FFn 8FFFn/	8ryy	.	8rbb	2ryy	.	.
8cn/L	4.A 4.Fn 4.Cn\	1	(8aaaL 8fffn 8cccn 8aa\	.	.	.
8dn/	.	2	8.ccccn 8.ccc\	.	.	.
8fn/J	.	1	.	.	.	.
*Xped	*	*	*	*	*	*
.	.	.	16aaaJk 16aa\)	.	.	.
*ped	*	*	*	*	*	*
!LO:TUP:a	!	!	!	!	!	!
(48CC#X\LLL	4ryy	4	4eee#X 4ccc#X/	(>8.aaaL 8.aa\	.	.
48DD#X\	.	3	.	.	.	.
48EE#X\	.	2	.	.	.	.
48BB\JJ	.	1	.	.	.	.
48C#X\LL	.	4	.	.	.	.
48D#X\	.	.	.	.	.	.
48E#X\	.	.	.	.	.	.
48G#\JJ	.	.	.	.	.	.
48c#X\LL	.	4	.	.	.	.
*Xped	*	*	*	*	*	*
48d#X\	.	.	.	16ggg#Jk 16gg#\)	4	.
*	*	*	*	*X8va	*	*
48e#X\	.	.	.	.	.	.
48b\JJJ)	.	.	.	.	.	.
*	*	*	*v	*v	*	*
=60	=60	=60	=60	=60	=60
*ped	*	*	*	*	*
!	!	!	!LO:TX:b:i:t=accel. e cresc.-::dur=3q:ext=ud:problem:text with extention lines	!	!
8GGn 8GGGn/	8ryy	.	8r	.	.
[<8B/L	[8Gn [8Dn\	.	8bbL 8ggn 8ddn 8b\	.	.
(8dn/	2B] 2G] 2D\]	.	(8dddn 8dd\	.	.
8B/)	.	2	8bb 8b\)	.	.
*Xped	*	*	*	*	*
(8e/	.	1	(8eee 8ee\	.	.
8B/J)	.	2	8bbJ 8b\)	.	.
!!LO:LB:g=original
=61	=61	=61	=61	=61	=61
*	*	*	*^	*	*
*ped	*	*	*	*	*	*
!	!	!	!LO:TX:b:i:t=poco-a-poco:dur=5e:ext=s:problem:text with extention lines	!	!	!
(8fn/L	4B 4Gn 4Dn\	.	4bb/	(>8fffnL 8ffn\	.	.
*Xped	*	*	*	*	*	*
8B/)	.	2	.	8bb 8b\)	.	.
*ped	*	*	*	*	*	*
(8gn~/	4dn 4B 4Fn\	1	4dddn/	(>8gggn 8ggn~>\	.	.
*Xped	*	*	*	*	*	*
8g#X~/	.	1	.	8ggg#X 8gg#X~>\	4	.
*ped	*	*	*	*	*	*
8a~/	4d#X 4B 4F\	.	4ddd#X/	8.aaa 8.aa~>\	.	.
*Xped	*	*	*	*	*	*
8gn~/J)	.	.	.	.	.	.
.	.	.	.	16gggnJk 16ggn~>\)	.	.
*v	*v	*	*	*	*	*
=62	=62	=62	=62	=62	=62
*ped	*	*	*	*	*
2EE 2EEE/	.	8r	8ryy	.	.
.	.	(>8gnL 8Gn/	4.e 4.cn\	.	<
.	.	8a 8A/	.	.	.
*Xped	*	*	*	*	*
.	.	8b 8B/	.	.	.
*ped	*	*	*	*	*
4Gn: 4Cn: 4EE:/	.	8ccn 8c/	4g\	.	.
.	.	16ddnL 16dn/	.	.	.
.	.	16eeJJ 16e/	.	.	[
*Xped	*	*	*	*	*
=63	=63	=63	=63	=63	=63
*^	*	*	*	*	*
*ped	*	*	*	*	*	*
4B-X: 4Gn: 4E-X: 4BB-X: 4EE-X:/	4ryy	5 3 2 1 2	8ggnL 8gn/	4ee-X 4b-X\	.	.
*Xped	*	*	*	*	*	*
.	.	.	8aaJ 8a/	.	.	.
*ped	*	*	*	*	*	*
8G^::/L	2Fn:: 2D-:: 2GGn::\	1	2gg 2ee- 2bn 2g\)	2ryy	.	.
8An^/	.	3	.	.	.	.
8Bn^/	.	2	.	.	.	.
8e-X^/J	.	1	.	.	.	.
*Xped	*	*	*	*	*	*
*v	*v	*	*	*	*	*
!!LO:LB:g=original
=64	=64	=64	=64	=64	=64
*ped	*below	*	*	*	*
8EE 8EEE/	.	8r	8ryy	.	.
(32gn\LLL	1	4ee 4ccn/	(>8ggnL 8gn\	.	.
32e\	2	.	.	.	.
32cn\	3	.	.	.	.
32Gn\JJJ	5	.	.	.	<
32e\LLL	1	.	8aa 8a\	.	.
32c\	2	.	.	.	.
32G\	4	.	.	.	.
32E\JJJ	5	.	.	.	.
32c\LLL	1	4.ryy	8bb 8b\	.	.
32G\	2	.	.	.	.
32E\	4	.	.	.	.
32Cn\JJJ	5	.	.	.	.
32G/LLL	.	.	8cccn 8gg 8ee 8cc\	.	.
32E/	.	.	.	.	.
32C/	.	.	.	.	.
32GGn/JJJ	.	.	.	.	.
32E/LLL	.	.	8eeeJ 8ccc 8gg 8ee\	.	.
32C/	.	.	.	.	.
32GG/	.	.	.	.	.
32EE/JJJ)	.	.	.	.	[[
*Xped	*	*	*	*	*
=65	=65	=65	=65	=65	=65
*^	*	*	*	*	*
*ped	*	*	*	*	*	*
4EE-X 4EEE-X/	4ryy	.	4eee-X 4bb-X/	8gggnL 8ggn\	.	.
.	.	.	.	8aaaJ 8aa\	.	.
*	*	*above	*	*8va	*	*
!LO:TUP:b	!	!	!	!	!	!
12B-X^/L	4Gn 4E-X 4BB-X\	1	4ggg 4eee-X/	8ccccnL 8cccn^>\	.	.
12cn^/	.	3	.	.	.	.
.	.	.	.	8bbb-XJ 8bb-X^>\	.	.
*Xped	*	*	*	*	*	*
12e-X^/J	.	2	.	.	.	.
.	[8qqBBn [8qqBBBn/	.	.	.	.	.
*ped	*	*	*	*	*	*
4f##X 4d#X 4Bn 4A/	4BB] 4BBB\]	.	4ryy	4fff##X 4ddd#X 4bbn 4ff##X^>\)	.	.
*Xped	*	*	*	*X8va	*	*
!!LO:PB:g=original
=66	=66	=66	=66	=66	=66	=66
*	*^	*	*	*	*	*
*ped	*	*	*	*8va	*	*	*
8rA	8ryy	2.GGn 2.GGGn\	.	2.bbb 2.eee 2.bb/	8ree	.	ff
*	*	*	*below	*X8va	*	*	*
8B/L	32B\LLL	.	1	.	(>8bL 8gn 8e~>\	1 2 3	f
.	32Gn\	.	2	.	.	.	<
.	32E\	.	3	.	.	.	.
.	32BB\JJJ	.	5	.	.	.	.
*ped	*	*	*	*	*	*	*
8c#/	32c#\LLL	.	.	.	8cc# 8g 8e~>\	4	.
.	32G\	.	.	.	.	.	.
.	32E\	.	.	.	.	.	.
.	32BB\JJJ	.	.	.	.	.	.
*ped	*	*	*	*	*	*	*
8d#/	32d#\LLL	.	.	.	8dd# 8b 8g~>\	2 3 5	.
.	32B\	.	.	.	.	.	.
.	32G\	.	.	.	.	.	.
.	32E\JJJ	.	.	.	.	.	.
*ped	*	*	*	*	*	*	*
8e/	32e\LLL	.	1	.	8ee 8b 8g~>\	1 2 4	.
.	32B\	.	2	.	.	.	.
.	32G\	.	4	.	.	.	.
.	32E\JJJ	.	5	.	.	.	.
8g#/J	32g#\LLL	.	.	.	8gg#J 8ee 8b~>\)	2 4 5	.
.	32e\	.	.	.	.	.	.
.	32B\	.	4	.	.	.	.
.	32G\JJJ	.	5	.	.	.	.
*Xped	*	*	*	*	*	*	*
=67	=67	=67	=67	=67	=67	=67	=67
*ped	*	*	*	*8va	*	*	*
8rF	8ryy	2.GGn 2.EE 2.CCn 2.GGGn\	.	2.ccccn 2.gggn 2.eee 2.cccn/	8ree	.	ff
*	*	*	*	*X8va	*	*	*
8Gn/L	32G\LLL	.	1	.	(>8gnL 8e 8cn~>\	1 2 3	f
.	32E\	.	2	.	.	.	<
!	!LO:SIC:v:o=32C#\	!	!	!	!	!	!
.	32C\	.	3	.	.	.	.
.	32GG\JJJ	.	5	.	.	.	.
8A/	32A\LLL	.	.	.	8a 8e 8c~>\	4	.
.	32E\	.	.	.	.	.	.
!	!LO:SIC:v:o=32C#\	!	!	!	!	!	!
.	32C\	.	.	.	.	.	.
.	32GG\JJJ	.	.	.	.	.	.
8B/	32B\LLL	.	.	.	8b 8g 8e~>\	2 3 5	.
.	32G\	.	.	.	.	.	.
.	32E\	.	.	.	.	.	.
!	!LO:SIC:v:o=32C#\JJJ	!	!	!	!	!	!
.	32C\JJJ	.	.	.	.	.	.
8cn/	32c\LLL	.	1	.	8cc 8g 8e~>\	1 2 4	.
.	32G\	.	2	.	.	.	.
.	32E\	.	4	.	.	.	.
!	!LO:SIC:v:o=32C#\JJJ	!	!	!	!	!	!
.	32C\JJJ	.	5	.	.	.	.
8e/J	32e\LLL	.	.	.	8eeJ 8cc 8g~>\)	2 4 5	.
.	32c\	.	.	.	.	.	.
.	32G\	.	.	.	.	.	.
.	32E\JJJ	.	.	.	.	.	.
!!LO:LB:g=original
=68	=68	=68	=68	=68	=68	=68	=68
*ped	*	*	*	*8va	*	*	*
8rA	8ryy	2.GGn 2.EE 2.BBBn 2.GGGn\	.	2.cccc#X 2.gggn 2.eee 2.ccc#X/	8ree	.	ff
*	*	*	*	*X8va	*	*	*
8B/L	32B\LLL	.	.	.	(>8bL 8gn 8e~>\	.	f
.	32Gn\	.	.	.	.	.	<
.	32E\	.	.	.	.	.	.
.	32BB\JJJ	.	.	.	.	.	.
8c#/	32c#\LLL	.	.	.	8cc# 8g 8e~>\	.	.
.	32G\	.	.	.	.	.	.
.	32E\	.	.	.	.	.	.
.	32BB\JJJ	.	.	.	.	.	.
8d#/	32d#\LLL	.	.	.	8dd# 8b 8g~>\	.	.
.	32B\	.	.	.	.	.	.
.	32G\	.	.	.	.	.	.
.	32E\JJJ	.	.	.	.	.	.
8e/	32e\LLL	.	.	.	8ee 8b 8g~>\	.	.
.	32B\	.	.	.	.	.	.
.	32G\	.	.	.	.	.	.
.	32E\JJJ	.	.	.	.	.	.
!LO:SIC:v:o=8g#/J	!LO:SIC:v:o=32g#\LLL	!	!	!	!	!	!
8g/J	32g\LLL	.	1	.	8ggJ 8ee 8b~>\)	.	.
.	32d#\	.	2	.	.	.	.
.	32B\	.	3	.	.	.	.
.	32G\JJJ	.	5	.	.	.	.
*v	*v	*v	*	*	*	*	*
*	*	*v	*v	*	*
=69	=69	=69	=69	=69
*^	*	*^	*	*
*	*^	*	*	*	*	*
*ped	*	*	*	*8va	*	*	*
!	!	!	!	!LO:TX:t=P:problem:# w nawiasie	!	!	!
8rF	8ryy	2.GGn 2.GGGn\	.	2.dddd#X 2.bbb 2.gggn 2.ddd#X/	8ree	.	.
*	*	*	*	*X8va	*	*	*
!	!	!	!	!	!	!	!LO:HP:t=cresc. con tutta forza
8B/L	32B\LLL	.	1	.	8ggL 8gn^>\	.	<
.	32Fn\	.	2	.	.	.	.
.	32D-X\	.	3	.	.	.	.
.	32GG\JJJ	.	5	.	.	.	.
8A/	32A\LLL	.	.	.	8aa 8a^>\	.	.
.	32F\	.	.	.	.	.	.
.	32D-\	.	.	.	.	.	.
.	32GG\JJJ	.	.	.	.	.	.
8Gn/	32G\LLL	.	.	.	8bb 8b^>\	.	.
.	32F\	.	.	.	.	.	.
.	32D-\	.	.	.	.	.	.
.	32GG\JJJ	.	.	.	.	.	.
8B/	32B\LLL	.	.	.	8eee-X 8ee-X^>\	4	.
.	32F\	.	.	.	.	.	.
.	32D-\	.	.	.	.	.	.
.	32GG\JJJ	.	.	.	.	.	.
!	!	!	!	!	!LO:SIC:v:o=8ggg#J 8ggny^>\	!	!
8e-X/J	32e-\LLL	.	1	.	8gggnJ 8ggny^>\	.	.
.	32B\	.	2	.	.	.	.
.	32F\	.	4	.	.	.	.
.	32D-\JJJ	.	5	.	.	.	.
*v	*v	*v	*	*	*	*	*
*	*	*v	*v	*	*
!!LO:LB:g=original
=70	=70	=70	=70	=70
*ped	*	*8va	*	*
4CCn 4CCCn/	.	([2.eeee [2.aaa#X [>2.fff# [2.eee\	.	sfz
(16FF#'/LL	4	.	.	p
16GG#'/	3	.	.	.
16AA#X'/	2	.	.	.
16E'/JJ	1	.	.	.
16F#'\LL	4	.	.	.
16G#'\	.	.	.	.
16A#X'\	.	.	.	.
16e'\JJ	.	.	.	.
=71	=71	=71	=71	=71
16Cn'\LL	5	4eeee] 4aaa#] 4fff#] 4eee\]	.	.
16F#'\	2	.	.	.
16G#'\	1	.	.	.
16A#X'\JJ	3	.	.	.
16e'\LL	1	4ddddn 4dddn\	.	.
16f#'\	4	.	.	.
16g#'\	3	.	.	.
16a#X'\JJ	2	.	.	.
*clefG2	*	*	*	*
8ee'\)	1	4ccccn 4cccn\)	.	.
8r	.	.	.	.
*Xped	*	*	*	*
*clefF4	*	*X8va	*	*
=72	=72	=72	=72	=72
*	*	*^	*^	*
*ped	*	*	*	*	*	*
(16BB\LL	3	[2.gg#/	(>2ccc#X 2cc#X\	42	1	.
16E\	1	.	.	.	.	.
16F#\	4	.	.	.	.	.
16G#\JJ	3	.	.	.	.	.
16B\LL	2	.	.	.	.	.
16e\	1	.	.	.	.	.
16f#\	3	.	.	.	.	.
16g#\JJ	2	.	.	.	.	.
!	!	!	!LO:TX:t=P:problem:# w nawiasie	!	!	!
4b\)	1	.	[>4ddd#X [4dd#X\	.	.	.
*Xped	*	*	*	*	*	*
*	*	*	*	*v	*v	*
=73	=73	=73	=73	=73	=73
*^	*	*	*	*	*
*ped	*	*	*	*	*	*
4GG#: 4GGG#:/	4ryy	.	4gg#/]	4ddd#] 4dd#\]	.	.
*clefG2	*	*above	*	*	*	*
(4cc#/	2g# 2e 2B\	1	4eee 4ccc# 4ee\	2ryy	.	.
4b/)	.	.	4ggg# 4bb 4gg#\	.	.	.
*v	*v	*	*	*	*	*
*Xped	*	*	*	*	*
*clefF4	*	*	*	*	*
!!LO:LB:g=original
=74	=74	=74	=74	=74	=74
*	*	*	*	*^	*
*ped	*	*	*	*	*	*
4GGn 4GGGn/	.	4bbb 4bb~\)	4ryy	.	.	.
*	*below	*	*	*	*	*
!!LO:TX:a:i:t=poco rit.
(16Dn\LL	5	2bb 2ggn 2ddn/	(4a\	2 4 5	1	pp
16Gn\	3	.	.	.	.	.
16B\	2	.	.	.	.	.
*Xped	*	*	*	*	*	*
16dn\JJ	1	.	.	.	.	.
4gn\)	2	.	4b\)	.	1	.
*	*	*	*	*v	*v	*
*	*	*v	*v	*	*
=75	=75	=75	=75	=75
*ped	*	*	*	*
2.FFn 2.FFFn\	.	2.B< 2.A< 2.D#< 2.BB</	.	.
*Xped	*	*	*	*
=76	=76	=76	=76	=76
*ped	*	*	*	*
!!LO:TX:a:B:t=Tranquillo.
!	!	!	!	!LO:DY:t=%s dolce
8BB 8FF#X 8BBB\	.	8c#< 8A< 8D#<~/	.	p
4BB 4FF# 4BBB\	.	4c#< 4A< 4D#<~/	.	.
8BB 8FF# 8BBB\	.	8c#< 8A< 8D#<~/	.	.
!	!	!LO:TX:t=P:problem:łuk	!	!
16ryy	.	64bb/LLLL	.	ppp
.	.	64ff#/	.	.
.	.	64dd#/	.	.
.	.	64b/JJJJ	.	.
64a>\LLLL	.	16ryy	.	.
64f#>\	.	.	.	.
64d#>\	.	.	.	.
64c#>\JJJJ	.	.	.	.
16ryy	.	64aa/LLLL	.	.
.	.	64ff#/	.	.
.	.	64dd#/	.	.
.	.	64a/JJJJ	.	.
64g#>\LLLL	.	16ryy	.	.
64f#>\	.	.	.	.
64d#>\	.	.	.	.
*Xped	*	*	*	*
64c#>\JJJJ,	.	.	.	.
!!LO:LB:g=original
=77	=77	=77	=77	=77
*ped	*	*	*	*
8GGn 8DDn 8GGGn\	.	8B< 8Gn< 8Dn< 8BB<~/	.	p
*Xped	*	*	*	*
4GG 4DD 4GGG\	.	4B< 4G< 4D< 4BB<~/	.	.
*ped	*	*	*	*
8GG 8DD 8GGG\	.	8B< 8G< 8D< 8BB<~/	.	.
!	!	!LO:TX:t=P:problem:mixed beam	!	!
!	!	!LO:TUP:a	!	!
8ryy	.	(40D</LLL	.	pp
.	.	40G</	.	.
.	.	40A</	.	.
.	.	40B</	.	.
.	.	40dn\	1	.
8ryy	.	40e\	.	.
.	.	40f#\	.	.
.	.	40gn\	1	.
.	.	40a\	.	.
.	.	40b\JJJ)	.	.
*Xped	*	*	*	*
=78	=78	=78	=78	=78
*^	*	*^	*	*
*ped	*	*	*	*	*	*
2ryy	8BB 8FF# 8BBB\	.	8c#< 8A< 8D#X<~/	2ryy	.	.
*Xped	*	*	*	*	*	*
.	4BB 4FF# 4BBB\	.	4c#< 4A< 4D#<~/	.	.	.
*ped	*	*	*	*	*	*
.	8BB 8FF# 8BBB\	.	8c#< 8A< 8D#<~/	.	.	.
!	!	!	!LO:TX:t=P:problem:łuk	!	!	!
4ryy	16ryy	.	64bb/LLLL	4ryy	.	.
.	.	.	64ff#/	.	.	.
.	.	.	64dd#/	.	.	.
.	.	.	64b/JJJJ	.	.	.
.	64a>\LLLL	.	16ryy	.	.	.
.	64f#>\	.	.	.	.	.
.	64d#>\	.	.	.	.	.
.	64c#>\JJJJ	.	.	.	.	.
.	16ryy	.	64aa/LLLL	.	.	.
.	.	.	64ff#/	.	.	.
.	.	.	64dd#/	.	.	.
.	.	.	64a/JJJJ	.	.	.
.	64g#>\LLLL	.	16ryy	.	.	.
.	64f#>\	.	.	.	.	.
.	64d#>\	.	.	.	.	.
*Xped	*	*	*	*	*	*
.	64c#>\JJJJ	.	.	.	.	.
*v	*v	*	*v	*v	*	*
!!LO:LB:g=original
=79	=	=52	=52	=52
*ped	*	*	*	*
8FFn 8CCn 8FFFn\	.	8A< 8Fn< 8Cn< 8AA<~/	.	.
4FF 4CC 4FFF\	.	4A< 4F< 4C< 4AA<~/	.	.
8FF 8CC 8FFF\	.	8A< 8F< 8C< 8AA<~/	.	.
*Xtuplet	*	*	*	*
!LO:TX:t=P:problem:mixed beam	!	!	!	!
!LO:TUP:a	!	!	!	!
(48Cny/LLL	.	4ryy	.	.
48Fny/	.	.	.	.
48Gn/	.	.	.	.
48A/	.	.	.	.
*	*above	*	*	*
48cn>\	1	.	.	.
48dn>\	.	.	.	.
48e>\	.	.	.	.
48fn>\	1	.	.	.
48gn>\	.	.	.	.
48a>\	.	.	.	.
48b>\	.	.	.	.
*Xped	*	*	*	*
48ccn>\JJJ	.	.	.	.
=80	=80	=80	=80	=80
*^	*	*^	*	*
*	*	*below	*	*	*	*
!	!	!	!LO:TX:a:i:t=m.g.	!	!	!
2cc#X>\);	4r	3	4ryy	2ryy	.	.
*ped	*	*	*	*	*	*
.	8BB 8FF# 8BBB\	.	8A< 8D#<~/	.	.	.
.	4BB 4FF# 4BBB\	.	4A< 4D#<~/	.	.	.
4ryy	.	.	.	4ryy	.	.
*Xped	*	*	*	*	*	*
.	8BB 8FF# 8BBB\	.	8A< 8D#<~;/	.	.	.
*v	*v	*	*v	*v	*	*
=81	=81	=81	=81	=81
*^	*	*	*	*
*Xtuplet	*	*	*	*	*
*cue	*	*	*	*	*
!LO:TX:t=P:problem:mixed beam	!	!	!	!	!
48Dn/LLL	2ryy	.	4ryy	.	.
48Gn/	.	.	.	.	.
48A/	.	.	.	.	.
48B/	.	.	.	.	.
48dn>\	.	1	.	.	.
48e>\	.	.	.	.	.
48f#>\	.	.	.	.	.
48gn>\	.	1	.	.	.
48a>\	.	.	.	.	.
48b>\	.	.	.	.	.
48ccn>\	.	.	.	.	.
48ddn>\JJJ	.	.	.	.	.
*Xcue	*	*	*	*	*
.	.	.	.	.	.
*ped	*	*	*	*	*
!	!	!	!LO:TX:a:i:t=m.g.	!	!
2dd#X>\	.	.	4ryy	.	f
!	!	!	!LO:TX:b:i:t=rit.	!	!
.	[4GGn [4CC# [4GGGn\	.	[4B< [4E#< [4BB<~/	.	.
*v	*v	*	*	*	*
!!LO:LB:g=original
=82	=82	=82	=82	=82
4GG] 4CC#] 4GGG\]	.	4B<] 4E#<] 4BB</]	.	.
2GGn 2CC# 2GGGn\	.	2B< 2En< 2BB<~/	.	.
*Xped	*	*	*	*
=83||	=83||	=83||	=83||	=83||
*k[f#c#g#d#a#e#]	*	*k[f#c#g#d#a#e#]	*	*
*^	*	*	*	*
*ped	*	*	*Xtuplet	*	*
!!LO:TX:a:B:t=Tempo I.
!	!	!	!	!	!LO:DY:rj
(8B/L	48B\LLL	.	(48c#/LLL	.	pp
.	48F#\	.	48f#/	.	.
.	48C#\	.	48g#/	.	.
.	48FF#\	.	48cc#/	.	.
.	48C#\	.	48g#/	.	.
.	48F#\JJJ	.	48f#/JJJ)	.	.
!	!	!	!LO:TX:b:i:t=leggiero	!	!
8A#/J)	48A#\LLL	.	(48c#/LLL	.	.
.	48F#\	.	48f#/	.	.
.	48C#\	.	48g#/	.	.
.	48FF#\	.	48cc#/	.	.
.	48C#\	.	48g#/	.	.
.	48F#\JJJ	.	48f#/JJJ)	.	.
(8B/L	48B\LLL	.	(48c#/LLL	.	.
.	48F#\	.	48f#/	.	.
.	48C#\	.	48g#/	.	.
.	48FF#\	.	48cc#/	.	.
.	48C#\	.	48g#/	.	.
.	48F#\JJJ	.	48f#/JJJ)	.	.
8A#/J)	48A#\LLL	.	(48c#/LLL	.	.
.	48F#\	.	48f#/	.	.
.	48C#\	.	48g#/	.	.
.	48FF#\	.	48cc#/	.	.
.	48C#\	.	48g#/	.	.
.	48F#\JJJ	.	48f#/JJJ)	.	.
(8B/L	48B\LLL	.	(48c#/LLL	.	.
.	48F#\	.	48f#/	.	.
.	48C#\	.	48g#/	.	.
.	48FF#\	.	48cc#/	.	.
.	48C#\	.	48g#/	.	.
.	48F#\JJJ	.	48f#/JJJ)	.	.
8A#/J)	48A#\LLL	.	(48c#/LLL	.	.
.	48F#\	.	48f#/	.	.
.	48C#\	.	48g#/	.	.
.	48FF#\	.	48cc#/	.	.
.	48C#\	.	48g#/	.	.
.	48F#\JJJ	.	48f#/JJJ)	.	.
!!LO:LB:g=original
=84	=84	=84	=84	=84	=84
*	*	*	*^	*	*
*ped	*	*	*	*	*	*
4ryy	48An\LLL	.	(8cc#~::/L	4c#::\	.	.
.	48F#\	.	.	.	.	.
.	48C#\	.	.	.	.	.
.	48FF#\	.	.	.	.	.
.	48C#\	.	.	.	.	.
.	48F#\JJJ	.	.	.	.	.
.	48A\LLL	.	8dd#/J	.	.	.
.	48F#\	.	.	.	.	.
.	48C#\	.	.	.	.	.
.	48FF#\	.	.	.	.	.
.	48C#\	.	.	.	.	.
.	48F#\JJJ	.	.	.	.	.
(8A~/L	48A\LLL	.	2cc#/)	2c#TT\	.	.
.	48F#\	.	.	.	.	.
.	48C#\	.	.	.	.	.
.	48FF#\	.	.	.	.	.
.	48C#\	.	.	.	.	.
.	48F#\JJJ	.	.	.	.	.
8B/J	48B\LLL	.	.	.	.	.
.	48F#\	.	.	.	.	.
.	48C#\	.	.	.	.	.
.	48FF#\	.	.	.	.	.
.	48C#\	.	.	.	.	.
.	48F#\JJJ	.	.	.	.	.
4A/)	48A\LLL	.	.	.	.	.
.	48F#\	.	.	.	.	.
.	48C#\	.	.	.	.	.
.	48FF#\	.	.	.	.	.
.	48C#\	.	.	.	.	.
.	48F#\JJJ	.	.	.	.	.
.	48A\LLL	.	.	.	.	.
.	48F#\	.	.	.	.	.
.	48C#\	.	.	.	.	.
.	48FF#\	.	.	.	.	.
.	48C#\	.	.	.	.	.
.	48F#\JJJ	.	.	.	.	.
!!LO:LB:g=original
=85	=85	=85	=85	=85	=85	=85
*ped	*	*	*	*	*	*
(8B/L	48B\LLL	.	2.c#TT/	8ryy	.	.
!	!	!	!	!	!	!LO:HP:a=2
.	48F#\	.	.	.	.	>
.	48C#\	.	.	.	.	.
.	48FF#\	.	.	.	.	.
.	48C#\	.	.	.	.	.
.	48F#\JJJ	.	.	.	.	.
8A#/J)	48A#X\LLL	.	.	8ryy	.	]
.	48F#\	.	.	.	.	.
.	48C#\	.	.	.	.	.
.	48FF#\	.	.	.	.	.
.	48C#\	.	.	.	.	.
.	48F#\JJJ	.	.	.	.	.
(8B/L	48B\LLL	.	.	8ryy	.	.
!	!	!	!	!	!	!LO:HP:a=2
.	48F#\	.	.	.	.	>
.	48C#\	.	.	.	.	.
.	48FF#\	.	.	.	.	.
.	48C#\	.	.	.	.	.
.	48F#\JJJ	.	.	.	.	.
8A#/J)	48A#\LLL	.	.	8ryy	.	]
.	48F#\	.	.	.	.	.
.	48C#\	.	.	.	.	.
.	48FF#\	.	.	.	.	.
.	48C#\	.	.	.	.	.
.	48F#\JJJ	.	.	.	.	.
(8B/L	48B\LLL	.	.	8ryy	.	.
!	!	!	!	!	!	!LO:HP:a=2
.	48F#\	.	.	.	.	>
.	48C#\	.	.	.	.	.
.	48FF#\	.	.	.	.	.
.	48C#\	.	.	.	.	.
.	48F#\JJJ	.	.	.	.	.
8A#/J)	48A#\LLL	.	.	8ryy	.	]
.	48F#\	.	.	.	.	.
.	48C#\	.	.	.	.	.
.	48FF#\	.	.	.	.	.
.	48C#\	.	.	.	.	.
.	48F#\JJJ	.	.	.	.	.
!!LO:LB:g=original
=86	=86	=86	=86	=86	=86	=86
*	*	*	*	*^	*	*
*ped	*	*	*	*	*	*	*
4ryy	48An\LLL	.	(8cc#~::/L	4c#::\	4ryy	.	.
!	!	!	!	!	!	!	!LO:HP:a
.	48F#\	.	.	.	.	.	<
.	48C#\	.	.	.	.	.	.
.	48FF#\	.	.	.	.	.	.
.	48C#\	.	.	.	.	.	.
.	48F#\JJJ	.	.	.	.	.	.
.	48A\LLL	.	8dd#/J	.	.	.	[
!	!	!	!	!	!	!	!LO:HP:a
.	48F#\	.	.	.	.	.	>
.	48C#\	.	.	.	.	.	.
.	48FF#\	.	.	.	.	.	.
.	48C#\	.	.	.	.	.	.
.	48F#\JJJ	.	.	.	.	.	]]
(8A~/L	48A\LLL	.	2cc#/)	2c#TT\	8ryy	.	.
!	!	!	!	!	!	!	!LO:HP:a=2
.	48F#\	.	.	.	.	.	<
.	48C#\	.	.	.	.	.	.
.	48FF#\	.	.	.	.	.	.
.	48C#\	.	.	.	.	.	.
.	48F#\JJJ	.	.	.	.	.	[
8B/J	48B\LLL	.	.	.	8ryy	.	.
.	48F#\	.	.	.	.	.	>
.	48C#\	.	.	.	.	.	.
.	48FF#\	.	.	.	.	.	.
.	48C#\	.	.	.	.	.	.
.	48F#\JJJ	.	.	.	.	.	.
4A/)	48A\LLL	.	.	.	4ryy	.	]
.	48F#\	.	.	.	.	.	.
.	48C#\	.	.	.	.	.	.
.	48FF#\	.	.	.	.	.	.
.	48C#\	.	.	.	.	.	.
.	48F#\JJJ	.	.	.	.	.	.
.	48A\LLL	.	.	.	.	.	.
.	48F#\	.	.	.	.	.	.
.	48C#\	.	.	.	.	.	.
.	48FF#\	.	.	.	.	.	.
.	48C#\	.	.	.	.	.	.
.	48F#\JJJ	.	.	.	.	.	.
*v	*v	*	*	*	*	*	*
!!LO:PB:g=original
=87	=87	=87	=87	=87	=87	=87
*ped	*	*	*	*	*	*
(48B\LLL	.	8r	8ryy	2.ryy	.	p
48F#\	.	.	.	.	.	.
48C#\	.	.	.	.	.	.
48FF#\	.	.	.	.	.	.
48C#\	.	.	.	.	.	.
48F#\JJJ)	.	.	.	.	.	.
!!LO:TX:a:i:t=molto cantabile
(48A#\LLL	.	(>8cc#L 8c#/	8g#\	.	.	<
48F#\	.	.	.	.	.	.
48C#\	.	.	.	.	.	.
48FF#\	.	.	.	.	.	.
48C#\	.	.	.	.	.	.
48F#\JJJ)	.	.	.	.	.	[
(48A#\LLL	.	8ee# 8e#/	4a#\	.	.	.
.	.	.	.	.	.	>
48F#\	.	.	.	.	.	.
48C#\	.	.	.	.	.	.
48FF#\	.	.	.	.	.	.
48C#\	.	.	.	.	.	.
48F#\JJJ)	.	.	.	.	.	.
(48A#\LLL	.	8dd# 8d#/	.	.	.	.
48F#\	.	.	.	.	.	.
48C#\	.	.	.	.	.	.
48FF#\	.	.	.	.	.	.
48C#\	.	.	.	.	.	]
48F#\JJJ)	.	.	.	.	.	.
(48A#\LLL	.	8cc#/	8g#L [8c#\	.	.	.
48F#\	.	.	.	.	.	.
48C#\	.	.	.	.	.	.
48FF#\	.	.	.	.	.	.
48C#\	.	.	.	.	.	.
48F#\JJJ)	.	.	.	.	.	.
(48A#\LLL	.	16a#/L	8f#J 8c#\]	.	.	.
48F#\	.	.	.	.	.	.
48C#\	.	.	.	.	.	.
48FF#\	.	16b/JJ	.	.	.	.
48C#\	.	.	.	.	.	.
48F#\JJJ)	.	.	.	.	.	.
*	*	*	*v	*v	*	*
!!LO:LB:g=original
=88	=88	=88	=88	=88	=88
*^	*	*	*	*	*
*ped	*	*	*	*	*	*
8B/L	48B\LLL	.	8cc#L 8c#/	2.g# 2.e#\	.	.
.	48E#\	.	.	.	.	.
.	48C#\	.	.	.	.	.
.	48FF#\	.	.	.	.	.
.	48C#\	.	.	.	.	.
.	48E#\JJJ	.	.	.	.	.
8G#/J	48G#\LLL	.	8dd#J 8d#/	.	.	.
.	48E#\	.	.	.	.	.
.	48C#\	.	.	.	.	.
.	48FF#\	.	.	.	.	.
.	48C#\	.	.	.	.	.
.	48E#\JJJ	.	.	.	.	.
8G#~/L	48G#\LLL	.	2cc# 2c#/)	.	.	.
.	48E#\	.	.	.	.	.
.	48C#\	.	.	.	.	.
.	48FF#\	.	.	.	.	.
.	48C#\	.	.	.	.	.
.	48E#\JJJ	.	.	.	.	.
8A#~/	48A#\LLL	.	.	.	.	.
.	48E#\	.	.	.	.	.
.	48C#\	.	.	.	.	.
.	48FF#\	.	.	.	.	.
.	48C#\	.	.	.	.	.
.	48E#\JJJ	.	.	.	.	.
8B~/	48B\LLL	.	.	.	.	.
.	48E#\	.	.	.	.	.
.	48C#\	.	.	.	.	.
.	48FF#\	.	.	.	.	.
.	48C#\	.	.	.	.	.
.	48E#\JJJ	.	.	.	.	.
8c#~/J	48c#\LLL	.	.	.	.	.
.	48E#\	.	.	.	.	.
.	48C#\	.	.	.	.	.
.	48FF#\	.	.	.	.	.
.	48C#\	.	.	.	.	.
.	48E#\JJJ	.	.	.	.	.
!!LO:LB:g=original
=89	=89	=89	=89	=89	=89	=89
*	*	*	*	*	*^	*
*ped	*	*	*	*	*	*	*
8d#/L	48d#\LLL	.	8r	8ryy	.	.	.
.	48F#\	.	.	.	.	.	.
.	48C#\	.	.	.	.	.	.
.	48FF#\	.	.	.	.	.	.
.	48C#\	.	.	.	.	.	.
.	48F#\JJJ	.	.	.	.	.	.
*	*	*	*	*	*above	*	*
8c#/	48c#\LLL	.	(8cc#L 8c#/	4.f#\	4	.	.
.	48F#\	.	.	.	.	.	.
!	!	!	!LO:TX:b:i:t=cresc.-poco-a-poco:ext=ud:problem:text with extention lines	!	!	!	!
.	48C#\	.	.	.	.	.	<
.	48FF#\	.	.	.	.	.	.
.	48C#\	.	.	.	.	.	.
.	48F#\JJJ	.	.	.	.	.	.
8B/	48B\LLL	.	8dd# 8d#/	.	5	.	.
.	48F#\	.	.	.	.	.	.
.	48C#\	.	.	.	.	.	.
.	48FF#\	.	.	.	.	.	.
.	48C#\	.	.	.	.	.	.
.	48F#\JJJ	.	.	.	.	.	.
8A#/	48A#\LLL	.	8ee# 8e#/	.	.	.	.
.	48F#\	.	.	.	.	.	.
.	48C#\	.	.	.	.	.	.
.	48FF#\	.	.	.	.	.	.
.	48C#\	.	.	.	.	.	.
.	48F#\JJJ	.	.	.	.	.	.
!	!	!	!	!LO:N:vis=4	!	!	!
8B/	48B\LLL	.	8ff# 8f#/	8cc#TT\	3	2	.
.	48F#\	.	.	.	.	.	[
.	48C#\	.	.	.	.	.	.
.	48FF#\	.	.	.	.	.	.
.	48C#\	.	.	.	.	.	.
.	48F#\JJJ	.	.	.	.	.	.
8A#/J	48A#\LLL	.	8aa#J 8a#/	8ryy	.	.	.
.	48F#\	.	.	.	.	.	.
.	48C#\	.	.	.	.	.	.
.	48FF#\	.	.	.	.	.	.
.	48C#\	.	.	.	.	.	.
.	48F#\JJJ	.	.	.	.	.	.
*	*	*	*	*	*v	*v	*
!!LO:LB:g=original
=90	=90	=90	=90	=90	=90	=90
*ped	*	*above	*	*	*	*
(8En/L	48E\LLL	1	2aan 2een/	8ccc#L 8cc#\	.	.
.	48C#\	2	.	.	.	.
.	48AAn\	3	.	.	.	.
.	48EEn\	.	.	.	.	.
.	48AA\	.	.	.	.	.
.	48C#\JJJ	.	.	.	.	.
8F#/	48F#\LLL	.	.	8ddd#J 8dd#\	.	.
.	48C#\	.	.	.	.	.
.	48AA\	.	.	.	.	.
.	48EE\	.	.	.	.	.
.	48AA\	.	.	.	.	.
.	48C#\JJJ	.	.	.	.	.
8An/	48A\LLL	.	.	2ccc# 2cc#\)	.	.
.	48E\	.	.	.	.	.
.	48C#\	.	.	.	.	.
.	48AA\	.	.	.	.	.
.	48C#\	.	.	.	.	.
.	48E\JJJ	.	.	.	.	.
8B/J	48B\LLL	.	.	.	.	.
.	48E\	.	.	.	.	.
.	48C#\	.	.	.	.	.
.	48AA\	.	.	.	.	.
.	48C#\	.	.	.	.	.
.	48E\JJJ	.	.	.	.	.
4c#/)	48c#\LLL	.	4ryy	.	.	.
.	48A\	.	.	.	.	.
.	48E\	.	.	.	.	.
.	48C#\	.	.	.	.	.
.	48E\	.	.	.	.	.
.	48G#\JJJ	.	.	.	.	.
.	48A\LLL	1	.	.	.	.
*Xped	*	*	*	*	*	*
.	48E\	2	.	.	.	.
.	48C#\	3	.	.	.	.
.	48BB\	1	.	.	.	.
.	48AA\	2	.	.	.	.
.	48GG#\JJJ	3	.	.	.	.
!!LO:LB:g=original
=91	=91	=91	=91	=91	=91	=91
*ped	*	*	*	*	*	*
8FF# 8FFF#/	8ryy	.	(8ccc#L 8cc#/	4bb 4ff#\	.	<
8G#/L	48G#\LLL	.	8ddd#J 8dd#/	.	.	.
.	48D#\	.	.	.	.	.
.	48BB\	.	.	.	.	[[
.	48FF#\	.	.	.	.	.
.	48BB\	.	.	.	.	.
.	48D#\JJJ	.	.	.	.	.
8F#/	48F#\LLL	.	8fff#L 8ccc# 8ff#\	4ryy	5	f >
.	48D#\	.	.	.	.	.
.	48BB\	.	.	.	.	.
.	48FF#\	.	.	.	.	.
.	48BB\	.	.	.	.	.
.	48D#\JJJ	.	.	.	.	.
8B/	48B\LLL	.	8ddd#J 8bb 8dd#\	.	4	.
.	48D#\	.	.	.	.	.
.	48BB\	.	.	.	.	.
.	48FF#\	.	.	.	.	.
.	48BB\	.	.	.	.	.
*Xped	*	*	*	*	*	*
.	48D#\JJJ	.	.	.	.	.
*ped	*	*	*	*	*	*
8A#/	48A#\LLL	.	4ff#/	8ccc#L 8cc#\	.	]]
.	48F#\	.	.	.	.	.
.	48C#\	.	.	.	.	.
.	48FF#\	.	.	.	.	.
.	48C#\	.	.	.	.	.
.	48F#\JJJ	.	.	.	.	.
8c#/J	48c#\LLL	.	.	16bbL 16b\	5	.
.	48F#\	.	.	.	.	.
.	48C#\	.	.	.	.	.
.	48FF#\	.	.	16aa#JJ 16a#\)	4	.
.	48C#\	.	.	.	.	.
*Xped	*	*	*	*	*	*
.	48F#\JJJ	.	.	.	.	.
!!LO:PB:g=original
=92	=92	=92	=92	=92	=92	=92
*ped	*	*	*	*	*	*
2ryy	48B\LLL	.	4gg# 4ee#/	(>8ccc#L 8cc#\	.	.
.	48E#\	.	.	.	.	.
.	48C#\	.	.	.	.	.
.	48FF#\	.	.	.	.	.
.	48C#\	.	.	.	.	.
.	48E#\JJJ	.	.	.	.	.
.	48B\LLL	.	.	8ddd#J 8dd#\	.	.
.	48E#\	.	.	.	.	.
.	48C#\	.	.	.	.	.
.	48FF#\	.	.	.	.	.
.	48C#\	.	.	.	.	.
.	48E#\JJJ	.	.	.	.	.
.	48B\LLL	.	4ryy	8ccc#L 8cc#\	.	.
.	48E#\	.	.	.	.	.
.	48C#\	.	.	.	.	.
.	48FF#\	.	.	.	.	.
.	48C#\	.	.	.	.	.
.	48E#\JJJ	.	.	.	.	.
.	48B\LLL	.	.	16aa#L 16a#\	5	.
.	48E#\	.	.	.	.	.
.	48C#\	.	.	.	.	.
.	48FF#\	.	.	16gg#JJ 16g#\	4	.
.	48C#\	.	.	.	.	.
*Xped	*	*	*	*	*	*
.	48E#\JJJ	.	.	.	.	.
*ped	*	*	*	*	*	*
8B/L	48B\LLL	.	4cc#/	8ff#L 8f#\	5	.
.	48F#\	.	.	.	.	.
.	48C#\	.	.	.	.	.
.	48FF#\	.	.	.	.	.
.	48C#\	.	.	.	.	.
.	48F#\JJJ	.	.	.	.	.
8A#/J	48A#\LLL	.	.	8dd#J 8d#\)	4	.
.	48F#\	.	.	.	.	.
.	48C#\	.	.	.	.	.
.	48FF#\	.	.	.	.	.
*Xped	*	*	*	*	*	*
.	48C#\	.	.	.	.	.
.	48F#\JJJ	.	.	.	.	.
!!LO:LB:g=original
=93	=93	=93	=93	=93	=93	=93
*	*	*	*	*	*^	*
*ped	*	*	*	*	*	*	*
!	!	!	!	!	!	!	!LO:HP:a
8An/	48A\LLL	.	4cc# 4b/	(8c#\L	.	.	<
.	48F#\	.	.	.	.	.	.
.	48C#\	.	.	.	.	.	.
.	48FF#\	.	.	.	.	.	.
.	48C#\	.	.	.	.	.	.
.	48F#\JJJ	.	.	.	.	.	.
8Gn/	48G\LLL	.	.	8d#\J	.	2	[
.	48E#\	.	.	.	.	.	.
.	48C#\	.	.	.	.	.	.
.	48FF#\	.	.	.	.	.	.
.	48C#\	.	.	.	.	.	.
.	48E#\JJJ	.	.	.	.	.	.
!	!	!	!	!	!	!	!LO:HP:a
8A/	48A\LLL	.	(8cc#/L	4e#\)	3	.	<
.	48E#\	.	.	.	.	.	.
.	48C#\	.	.	.	.	.	.
.	48FF#\	.	.	.	.	.	.
.	48C#\	.	.	.	.	.	.
.	48E#\JJJ	.	.	.	.	.	.
8G/	48G\LLL	.	8dd#/J	.	4	.	[
.	48E#\	.	.	.	.	.	.
.	48C#\	.	.	.	.	.	.
.	48FF#\	.	.	.	.	.	.
.	48C#\	.	.	.	.	.	.
.	48E#\JJJ	.	.	.	.	.	.
8A/L	48A\LLL	.	4ee#/)	16e#\KL	5	1	.
.	48E#\	.	.	.	.	.	.
.	48C#\	.	.	.	.	.	.
!	!	!	!	!	!	!	!LO:HP:a
.	48FF#\	.	.	(8d#\	.	1	>
.	48C#\	.	.	.	.	.	.
.	48E#\JJJ	.	.	.	.	.	.
8B/J	48B\LLL	.	.	.	.	.	.
.	48E#\	.	.	.	.	.	.
.	48C#\	.	.	.	.	.	.
.	48FF#\	.	.	16c#\Jk)	.	1	]
.	48C#\	.	.	.	.	.	.
.	48E#\JJJ	.	.	.	.	.	.
*	*	*	*	*	*v	*v	*
!!LO:LB:g=original
=94	=94	=94	=94	=94	=94	=94
*ped	*	*	*	*	*	*
(8B/L	48B\LLL	.	4ff#:/	(8c#:\L	.	f
!	!	!	!	!	!	!LO:HP:a=2
.	48F#\	.	.	.	.	>
.	48C#\	.	.	.	.	.
.	48FF#\	.	.	.	.	.
.	48C#\	.	.	.	.	.
.	48F#\JJJ	.	.	.	.	.
*	*	*	*	*	*below	*
8A#/J)	48A#X\LLL	.	.	8d#\J	1	]
.	48F#\	.	.	.	.	.
.	48C#\	.	.	.	.	.
.	48FF#\	.	.	.	.	.
.	48C#\	.	.	.	.	.
.	48F#\JJJ	.	.	.	.	.
*	*	*	*tuplet	*	*	*
!	!	!	!LO:TX:t=P:problem:klamra łukowa	!	!	!
(8B/L	48B\LLL	.	12r	2f#\)	1	.
!	!	!	!	!	!	!LO:HP:a=2
.	48F#\	.	.	.	.	>
.	48C#\	.	.	.	.	.
.	48FF#\	.	.	.	.	.
*	*	*	*	*	*above	*
.	48C#\	.	12cc#/L	.	3	.
.	48F#\JJJ	.	.	.	.	]]
8A#/J)	48A#\LLL	.	.	.	.	.
.	48F#\	.	.	.	.	.
.	48C#\	.	12dd#/J	.	4	.
.	48FF#\	.	.	.	.	.
.	48C#\	.	.	.	.	.
.	48F#\JJJ	.	.	.	.	.
(8B/L	48B\LLL	.	4ff#/	.	5	.
!	!	!	!	!	!	!LO:HP:a=2
.	48F#\	.	.	.	.	>
.	48C#\	.	.	.	.	.
.	48FF#\	.	.	.	.	.
.	48C#\	.	.	.	.	.
.	48F#\JJJ	.	.	.	.	]]
8A#/J)	48A#\LLL	.	.	.	.	.
.	48F#\	.	.	.	.	.
.	48C#\	.	.	.	.	.
.	48FF#\	.	.	.	.	.
.	48C#\	.	.	.	.	.
.	48F#\JJJ	.	.	.	.	.
*v	*v	*	*	*	*	*
!!LO:LB:g=original
=95	=95	=95	=95	=95	=95
*	*	*	*	*^	*
*ped	*	*	*	*	*	*
(48B\LLL	.	4dd#::/	(8c#::\L	.	.	.
48E#\	.	.	.	.	.	.
48C#\	.	.	.	.	.	.
48FF#\	.	.	.	.	.	.
48C#\	.	.	.	.	.	.
48E#\JJJ)	.	.	.	.	.	.
(48B\LLL	.	.	8d#\J	.	.	.
48E#\	.	.	.	.	.	.
48C#\	.	.	.	.	.	.
48FF#\	.	.	.	.	.	.
48C#\	.	.	.	.	.	.
48E#\JJJ)	.	.	.	.	.	.
(48B\LLL	.	(8cc#/L	2g#\)	2	1	.
48E#\	.	.	.	.	.	.
48C#\	.	.	.	.	.	.
48FF#\	.	.	.	.	.	.
48C#\	.	.	.	.	.	.
48E#\JJJ)	.	.	.	.	.	.
(48B\LLL	.	8dd#/J	.	3	.	.
48E#\	.	.	.	.	.	.
48C#\	.	.	.	.	.	.
48FF#\	.	.	.	.	.	.
48C#\	.	.	.	.	.	.
48E#\JJJ)	.	.	.	.	.	.
(48B\LLL	.	4gg#/)	.	5	.	.
48E#\	.	.	.	.	.	.
48C#\	.	.	.	.	.	.
48FF#\	.	.	.	.	.	.
48C#\	.	.	.	.	.	.
48E#\JJJ)	.	.	.	.	.	.
(48B\LLL	.	.	.	.	.	.
48E#\	.	.	.	.	.	.
48C#\	.	.	.	.	.	.
48FF#\	.	.	.	.	.	.
48C#\	.	.	.	.	.	.
48E#\JJJ)	.	.	.	.	.	.
*	*	*	*	*v	*v	*
!!LO:LB:g=original
=96	=96	=96	=96	=96	=96
*^	*	*	*	*	*
*ped	*	*	*	*	*	*
8B/L	48B\LLL	.	4dd#::/	(8c#::\L	.	.
.	48F#\	.	.	.	.	.
.	48C#\	.	.	.	.	.
.	48FF#\	.	.	.	.	.
.	48C#\	.	.	.	.	.
.	48F#\JJJ	.	.	.	.	.
8A#/J	48A#\LLL	.	.	8d#\J	.	.
.	48F#\	.	.	.	.	.
.	48C#\	.	.	.	.	.
.	48FF#\	.	.	.	.	.
.	48C#\	.	.	.	.	.
.	48F#\JJJ	.	.	.	.	.
*	*	*	*tuplet	*	*	*
8B/L	48B\LLL	.	12r	(>2a#\)	2-1	.
.	48F#\	.	.	.	.	.
.	48C#\	.	.	.	.	.
.	48FF#\	.	.	.	.	.
.	48C#\	.	12cc#/L	.	.	.
.	48F#\JJJ	.	.	.	.	.
8A#/J	48A#\LLL	.	.	.	.	.
.	48F#\	.	.	.	.	.
.	48C#\	.	12dd#/J	.	.	.
.	48FF#\	.	.	.	.	.
.	48C#\	.	.	.	.	.
.	48F#\JJJ	.	.	.	.	.
.	.	.	(8qcc#/	.	.	.
8B/L	48B\LLL	.	8aa#/L)	.	.	.
.	48F#\	.	.	.	.	.
.	48C#\	.	.	.	.	.
.	48FF#\	.	.	.	.	.
.	48C#\	.	.	.	.	.
.	48F#\JJJ	.	.	.	.	.
8A#/J	48A#\LLL	.	16gg#/L	.	.	.
.	48F#\	.	.	.	.	.
.	48C#\	.	.	.	.	.
.	48FF#\	.	16ff#/JJ)	.	.	.
.	48C#\	.	.	.	.	.
.	48F#\JJJ	.	.	.	.	.
*v	*v	*	*	*	*	*
!!LO:PB:g=original
=97	=97	=97	=97	=97	=97
*	*	*	*	*	*^
!	!	!	!	!	!LO:HP:a	!
48B\LLL	.	4dd#::/	(8c#::\L	.	<	.
48E#\	.	.	.	.	.	.
48C#\	.	.	.	.	.	.
48FF#\	.	.	.	.	.	.
48C#\	.	.	.	.	.	.
48E#\JJJ	.	.	.	.	.	.
48B\LLL	.	.	8d#\J	.	.	.
48E#\	.	.	.	.	.	.
48C#\	.	.	.	.	.	.
48FF#\	.	.	.	.	.	.
48C#\	.	.	.	.	[	.
48E#\JJJ	.	.	.	.	.	.
48B\LLL	.	(8cc#/L	8b\L	3 2	.	.
!	!	!	!	!	!LO:HP:a	!
48E#\	.	.	.	.	<	.
48C#\	.	.	.	.	.	.
48FF#\	.	.	.	.	.	.
48C#\	.	.	.	.	.	.
48E#\JJJ	.	.	.	.	.	.
48B\LLL	.	8dd#/J	8a#\J	.	.	.
48E#\	.	.	.	.	[	.
48C#\	.	.	.	.	.	.
48FF#\	.	.	.	.	.	.
48C#\	.	.	.	.	.	.
48E#\JJJ	.	.	.	.	.	.
.	.	(>[16qqg#/LL	.	1	.	.
.	.	16qqcc#/	.	2	.	.
.	.	16qqdd#/JJ	.	3	.	.
!	!	!	!	!	!LO:HP:a	!
48B\LLL	.	8bb/L)	4g#\)]	5	>	.
48E#\	.	.	.	.	.	.
48C#\	.	.	.	.	.	.
48FF#\	.	.	.	.	.	.
48C#\	.	.	.	.	.	.
48E#\JJJ	.	.	.	.	.	>
48B\LLL	.	16aa#/L	.	4	]]	.
48E#\	.	.	.	.	.	.
48C#\	.	.	.	.	.	.
48FF#\	.	16gg#/JJ)	.	3	.	.
48C#\	.	.	.	.	.	.
48E#\JJJ	.	.	.	.	.	.
*	*	*	*	*	*v	*v
!!LO:LB:g=original
=98	=98	=98	=98	=98	=98
*^	*	*	*	*	*
*	*	*	*Xtuplet	*	*	*
!	!	!	!	!	!	!LO:DY:t=%s delicato
8B/L	48B\LLL	.	(48cc#\LLL	4ryy	1	pp
.	48F#\	.	48ff#\	.	2	.
.	48C#\	.	48gg#\	.	3	.
.	48FF#\	.	48ccc#\	.	5	.
.	48C#\	.	48gg#\	.	3	.
.	48F#\JJJ	.	48ff#\JJJ	.	2	.
8A#/J	48A#\LLL	.	48cc#/LLL	.	1	.
.	48F#\	.	48g#/	.	3	.
.	48C#\	.	48f#/	.	2	.
.	48FF#\	.	48c#/	.	1	.
.	48C#\	.	48f#/	.	.	.
.	48F#\JJJ	.	48g#/JJJ)	.	.	.
8B/L	48B\LLL	.	(48cc#/LLL	8cc#\	.	.
.	48F#\	.	48g#/	.	.	.
.	48C#\	.	48f#/	.	.	.
.	48FF#\	.	48c#/	.	.	.
.	48C#\	.	48f#/	.	.	.
.	48F#\JJJ	.	48g#/JJJ	.	.	.
8A#/J	48A#\LLL	.	48dd#/LLL	8dd#\	.	.
.	48F#\	.	48g#/	.	.	.
.	48C#\	.	48f#/	.	.	.
.	48FF#\	.	48d#/	.	.	.
.	48C#\	.	48f#/	.	.	.
.	48F#\JJJ	.	48g#/JJJ	.	.	.
8B/L	48B\LLL	.	48cc#/LLL	8cc#\	.	.
.	48F#\	.	48g#/	.	.	.
.	48C#\	.	48f#/	.	.	.
.	48FF#\	.	48c#/	.	.	.
.	48C#\	.	48f#/	.	.	.
.	48F#\JJJ	.	48g#/JJJ	.	.	.
8A#/J	48A#\LLL	.	48dd#/LLL	8dd#\	.	.
.	48F#\	.	48g#/	.	.	.
.	48C#\	.	48f#/	.	.	.
.	48FF#\	.	48d#/	.	.	.
.	48C#\	.	48f#/	.	.	.
.	48F#\JJJ	.	48g#/JJJ)	.	.	.
!!LO:LB:g=original
=99	=99	=99	=99	=99	=99	=99
*	*	*	*ped	*	*	*
8A#L 8F# 8C# 8FF#\	2ryy	.	(48c#/LLL	8c#\	.	.
.	.	.	48f#/	.	.	.
.	.	.	48g#/	.	.	p
.	.	.	48cc#/	.	.	.
.	.	.	48g#/	.	.	.
.	.	.	48f#/JJJ	.	.	.
*	*	*	*ped	*	*	*
8c#:J 8An: 8F#: 8C#:\	.	.	48en/LLL	8e\	1	.
.	.	.	48an/	.	2	.
.	.	.	48b/	.	3	.
.	.	.	48een/	.	.	.
.	.	.	48b/	.	.	.
.	.	.	48a/JJJ	.	.	.
*	*	*	*ped	*	*	*
4en: 4c#: 4An: 4En:\	.	.	48f#/LLL	4f#\	.	.
.	.	.	48cc#/	.	2	.
.	.	.	48dd#/	.	3	.
.	.	.	48ff#/	.	.	.
.	.	.	48dd#/	.	.	.
.	.	.	48cc#/JJJ	.	.	<
.	.	.	48f#/LLL	.	.	.
.	.	.	48cc#/	.	.	.
.	.	.	48dd#/	.	.	.
.	.	.	48ff#/	.	.	.
.	.	.	48dd#/	.	.	.
.	.	.	48cc#/JJJ	.	.	.
*	*	*	*ped	*	*	*
4e#X 4d# 4B 4F#\	8ryy	.	48a/LLL	4a\	.	.
.	.	.	48dd#/	.	2	.
.	.	.	48ee#X/	.	3	>
.	.	.	48aan/	.	.	.
.	.	.	48ee#/	.	.	.
.	.	.	48dd#/JJJ	.	.	]
*	*	*	*ped	*	*	*
.	[8FF# [8FFF#^>\	.	48a#/LLL	.	.	pp
.	.	.	48dd#/	.	.	.
.	.	.	48ee#/	.	.	.
.	.	.	48aa/	.	.	.
.	.	.	48ee#/	.	.	.
.	.	.	48dd#/JJJ)	.	.	.
!!LO:LB:g=original
=100	=100	=100	=100	=100	=100	=100
8a#:L 8f#: 8c#: 8A#: 8F#: 8C#:/	2FF#] 2FFF#\]	.	(48cc#\LLL	2ryy	.	.
.	.	.	48ff#\	.	.	.
.	.	.	48gg#\	.	.	.
.	.	.	48ccc#\	.	.	.
.	.	.	48gg#\	.	.	.
.	.	.	48ff#\JJJ)	.	.	.
*clefG2	*	*	*	*	*	*
8cc#J 8an 8f# 8c#/	.	.	(48een\LLL	.	.	<
.	.	.	48aan\	.	.	.
.	.	.	48bb\	.	.	.
.	.	.	48eeen\	.	.	.
.	.	.	48bb\	.	.	.
.	.	.	48aa\JJJ)	.	.	.
4een 4cc# 4a 4en/	.	.	(48ff#\LLL	.	.	.
.	.	.	48ccc#\	.	.	.
.	.	.	48ddd#\	.	.	.
.	.	.	48fff#\	.	.	.
.	.	.	48ddd#\	.	.	.
.	.	.	48ccc#\JJJ	.	.	.
.	.	.	48ff#\LLL	.	.	[
.	.	.	48ccc#\	.	.	.
.	.	.	48ddd#\	.	.	.
.	.	.	48fff#\	.	.	.
.	.	.	48ddd#\	.	.	.
.	.	.	48ccc#\JJJ	.	.	.
*ped	*	*	*8va	*	*	*
[4ee#X~: [<4dd#: [4b: [4f#:\	4ryy	.	48aan/LLL	8aa~\	.	>
.	.	.	48ddd#/	.	.	.
.	.	.	48eee#X/	.	.	.
.	.	.	48aaan/	.	.	.
.	.	.	48eee#/	.	.	.
.	.	.	48ddd#/JJJ	.	.	.
.	.	.	48aa/LLL	8aa~\	.	.
.	.	.	48ddd#/	.	.	.
.	.	.	48eee#/	.	.	.
.	.	.	48aaa/	.	.	.
.	.	.	48eee#/	.	.	.
.	.	.	48ddd#/JJJ	.	.	]]
*v	*v	*	*	*	*	*
!!LO:LB:g=original
=101	=101	=101	=101	=101	=101
p4ee#] 4dd#] 4b] 4f#\]	.	48aan/LLL	8aa~\	.	.
.	.	48ddd#/	.	.	.
.	.	48eee#/	.	.	.
.	.	48aaan/	.	.	.
.	.	48eee#/	.	.	.
.	.	48ddd#/JJJ	.	.	.
!	!	!LO:TX:b:i:t=rit.	!	!	!
.	.	32aa/LLL	8aa~\	.	.
.	.	32ddd#/	.	2	.
.	.	32eee#/	.	3	.
.	.	32aaa/JJJ	.	5	.
*clefF4	*	*	*	*	*
8r	.	8cccc#\)	2ryy	4	.
*ped	*	*X8va	*	*	*
8FF# 8FFF#/	.	8r	.	.	pp
4E# 4C# 4GGn;</	.	4b 4e# 4c# 4B;/	.	.	.
*Xped	*	*	*	*	*
=102	=102	=102	=102	=102	=102
!!LO:TX:a:B:t=Lento.
!!LO:TX:a:i:t=rit.
4r	.	8c#~/L	2ryy	.	mf <
.	.	8d#~/J	.	.	.
.	.	.	.	.	[
*ped	*	*	*	*	*
4r	.	[>4e#~>/	.	.	.
.	.	.	.	.	>
4E# 4C# 4GGn/	.	16e#/KL]	4B\	.	.
*Xped	*	*	*	*	*
.	.	8d#/	.	.	.
.	.	16c#/Jk	.	.	]
*	*	*v	*v	*	*
=103	=103	=103	=103	=103
*ped	*	*	*	*
4FF# 4FFF#\	.	4c#< 4A#< 4F#< 4C#</	.	pp
2a# 2f# 2c# 2A#;\	.	2ccc# 2ff# 2cc#;\	.	.
*Xped	*	*	*	*
==	==	==	==	==
*-	*-	*-	*-	*-
!!!system-decoration: {(g1)}
!!!RDF**kern: i = editorial accidental
!!!RDF**kern: > = above
!!!RDF**kern: < = below
!!!RDF**kern: N = linked
!!!RDF**dynam: > = "dim.", fontstyle= "italic"
!!!ENC: Andrzej Gręziak
!!!EED: Katarzyna Serwa
!!!END: 2023-10-19
!!!EEV: 2023-10-30
